%
(SA_Injection_Mold_Part)
(T3  D=0.25 CR=0.02 - ZMIN=-0.5 - bullnose end mill)
(T7  D=0.125 CR=0.01 - ZMIN=-0.51 - bullnose end mill)
(T8  D=0.125 CR=0.0625 - ZMIN=-0.0673 - ball end mill)
(T9  D=0.1875 CR=0. TAPER=118deg - ZMIN=-0.1025 - center drill)
(T10  D=0.1406 CR=0. TAPER=118deg - ZMIN=-1.1447 - drill)
(T14  D=0.1875 CR=0. TAPER=30deg - ZMIN=-0.525 - chamfer mill)
G90 G54 G64 G50 G17 G40 G80 G94 G91.1 G49
G20 (Inch)
G30

N10(Drill1)
T9 G43 H9 M6
S6110 M3 M8
G54
G0 X-0.5 Y0.5
G0 Z0.5975
G0 Z0.1975
G98 G81 X-0.5 Y0.5 Z-0.1025 R0.1975 F29.
Y-0.5
X0.
X1. Y0.5
G80
G0 Z0.5975
M5 M9
G30

N20(Drill2)
M1
T10 G43 H10 M6
S1800 M3 M8
G0 X-0.5 Y0.5
G0 Z0.5975
G0 Z0.1975
G98 G83 X-0.5 Y0.5 Z-1.1447 R0.1975 Q0.0352 F6.
Y-0.5
X0.
X1. Y0.5
G80
G0 Z0.5975
M5 M9
G30

N30(Adaptive1)
M1
T3 G43 H3 M6
S4584 M3 M8
G0 X0.0559 Y0.0666
G0 Z0.5975
G0 Z0.1975
G0 Z0.0976
G3 X0.1071 Y-0.1263 Z0.0866 I0.0256 J-0.0964 F13.333
G3 X0.0559 Y0.0666 Z0.0757 I-0.0256 J0.0964
G3 X0.1071 Y-0.1263 Z0.0647 I0.0256 J-0.0964
G3 X0.0559 Y0.0666 Z0.0538 I-0.0256 J0.0964
G3 X0.1071 Y-0.1263 Z0.0428 I0.0256 J-0.0964
G3 X0.0559 Y0.0666 Z0.0319 I-0.0256 J0.0964
G3 X0.1071 Y-0.1263 Z0.021 I0.0256 J-0.0964
G3 X0.0559 Y0.0666 Z0.01 I-0.0256 J0.0964
G3 X0.1071 Y-0.1263 Z-0.0009 I0.0256 J-0.0964
G3 X0.0559 Y0.0666 Z-0.0119 I-0.0256 J0.0964
G3 X0.1071 Y-0.1263 Z-0.0228 I0.0256 J-0.0964
G3 X0.0559 Y0.0666 Z-0.0338 I-0.0256 J0.0964
G3 X0.1071 Y-0.1263 Z-0.0447 I0.0256 J-0.0964
G3 X0.0559 Y0.0666 Z-0.0556 I-0.0256 J0.0964
G3 X0.1071 Y-0.1263 Z-0.0666 I0.0256 J-0.0964
G3 X0.0559 Y0.0666 Z-0.0775 I-0.0256 J0.0964
G3 X0.1071 Y-0.1263 Z-0.0885 I0.0256 J-0.0964
G3 X0.0559 Y0.0666 Z-0.0994 I-0.0256 J0.0964
G3 X0.1071 Y-0.1263 Z-0.1104 I0.0256 J-0.0964
G3 X0.0559 Y0.0666 Z-0.1213 I-0.0256 J0.0964
G3 X0.1071 Y-0.1263 Z-0.1323 I0.0256 J-0.0964
G3 X0.0559 Y0.0666 Z-0.1432 I-0.0256 J0.0964
G3 X0.1071 Y-0.1263 Z-0.1541 I0.0256 J-0.0964
G3 X0.0559 Y0.0666 Z-0.1651 I-0.0256 J0.0964
G3 X0.1071 Y-0.1263 Z-0.176 I0.0256 J-0.0964
G3 X0.0559 Y0.0666 Z-0.187 I-0.0256 J0.0964
G3 X0.1071 Y-0.1263 Z-0.1979 I0.0256 J-0.0964
G3 X0.1813 Y-0.0299 Z-0.2025 I-0.0256 J0.0964
G3 X-0.0182 I-0.0998 J0.
G3 X0.1813 I0.0998 J0.
G1 X0.1814 Y-0.0211 F20.
G1 X0.1914 Y0.0181
G1 X0.1921 Y0.0234
G1 X0.1924 Y0.0288
G1 X0.1922 Y0.0345
G1 X0.1916 Y0.0405
G1 X0.1903 Y0.0468
G1 X0.1885 Y0.0533
G1 X0.186 Y0.0601
G1 X0.1828 Y0.0669
G1 X0.1789 Y0.0739
G1 X0.1743 Y0.0807
G1 X0.1689 Y0.0875
G1 X0.1627 Y0.094
G1 X0.1558 Y0.1003
G1 X0.1482 Y0.1062
G1 X0.1399 Y0.1116
G1 X0.1309 Y0.1164
G1 X0.1213 Y0.1207
G1 X0.1111 Y0.1242
G1 X0.1005 Y0.1269
G1 X0.0894 Y0.1289
G1 X0.078 Y0.1299
G1 X0.0664 Y0.1301
G1 X0.0546 Y0.1293
G1 X0.0428 Y0.1275
G1 X0.031 Y0.1248
G1 X0.0193 Y0.1211
G1 X0.0079 Y0.1164
G1 X-0.0033 Y0.1107
G1 X-0.014 Y0.1041
G1 X-0.0243 Y0.0967
G1 X-0.034 Y0.0883
G1 X-0.043 Y0.0792
G1 X-0.0513 Y0.0693
G1 X-0.0589 Y0.0587
G1 X-0.0656 Y0.0476
G1 X-0.0714 Y0.0358
G1 X-0.0762 Y0.0236
G1 X-0.0801 Y0.011
G1 X-0.0829 Y-0.0019
G1 X-0.0848 Y-0.015
G1 X-0.0855 Y-0.0282
G1 X-0.0852 Y-0.0415
G1 X-0.0838 Y-0.0547
G1 X-0.0814 Y-0.0678
G1 X-0.0779 Y-0.0807
G1 X-0.0734 Y-0.0933
G1 X-0.0679 Y-0.1055
G1 X-0.0614 Y-0.1172
G1 X-0.054 Y-0.1283
G1 X-0.0457 Y-0.1389
G1 X-0.0366 Y-0.1487
G1 X-0.0267 Y-0.1578
G1 X-0.0162 Y-0.1661
G1 X-0.0049 Y-0.1735
G1 X0.0068 Y-0.18
G1 X0.0191 Y-0.1855
G1 X0.0318 Y-0.19
G1 X0.0447 Y-0.1935
G1 X0.058 Y-0.1959
G1 X0.0714 Y-0.1973
G1 X0.0848 Y-0.1976
G1 X0.0983 Y-0.1968
G1 X0.1116 Y-0.1949
G1 X0.1247 Y-0.1919
G1 X0.1376 Y-0.188
G1 X0.1501 Y-0.183
G1 X0.1622 Y-0.177
G1 X0.1737 Y-0.17
G1 X0.1847 Y-0.1622
G1 X0.1949 Y-0.1535
G1 X0.2045 Y-0.144
G1 X0.2133 Y-0.1337
G1 X0.2236 Y-0.1195
G1 X0.2379 Y-0.096
G1 X0.2481 Y-0.0759
G1 X0.2554 Y-0.058
G1 X0.2608 Y-0.0409
G1 X0.2645 Y-0.0245
G1 X0.2668 Y-0.0087
G1 X0.2679 Y0.0068
G1 X0.2676 Y0.022
G1 X0.2662 Y0.037
G1 X0.2636 Y0.0517
G1 X0.2598 Y0.0662
G1 X0.2549 Y0.0803
G1 X0.2488 Y0.094
G1 X0.2416 Y0.1072
G1 X0.2333 Y0.1199
G1 X0.2239 Y0.1321
G1 X0.2135 Y0.1436
G1 X0.202 Y0.1543
G1 X0.1896 Y0.1642
G1 X0.1763 Y0.1732
G1 X0.1621 Y0.1811
G1 X0.1472 Y0.188
G1 X0.1316 Y0.1937
G1 X0.1154 Y0.1982
G1 X0.0987 Y0.2014
G1 X0.0816 Y0.2032
G1 X0.0643 Y0.2038
G1 X0.0468 Y0.2029
G1 X0.0292 Y0.2005
G1 X0.0117 Y0.1968
G1 X-0.0055 Y0.1916
G1 X-0.0225 Y0.185
G1 X-0.039 Y0.1769
G1 X-0.0549 Y0.1676
G1 X-0.07 Y0.1569
G1 X-0.0844 Y0.1449
G1 X-0.0978 Y0.1318
G1 X-0.1102 Y0.1176
G1 X-0.1214 Y0.1024
G1 X-0.1315 Y0.0862
G1 X-0.1402 Y0.0692
G1 X-0.1476 Y0.0516
G1 X-0.1535 Y0.0333
G1 X-0.158 Y0.0146
G1 X-0.1609 Y-0.0045
G1 X-0.1624 Y-0.0238
G1 X-0.1622 Y-0.0432
G1 X-0.1605 Y-0.0625
G1 X-0.1573 Y-0.0817
G1 X-0.1525 Y-0.1006
G1 X-0.1462 Y-0.119
G1 X-0.1385 Y-0.1369
G1 X-0.1293 Y-0.1542
G1 X-0.1188 Y-0.1707
G1 X-0.1069 Y-0.1863
G1 X-0.0939 Y-0.2009
G1 X-0.0797 Y-0.2144
G1 X-0.0644 Y-0.2267
G1 X-0.0482 Y-0.2378
G1 X-0.0336 Y-0.2462
G1 X-0.016 Y-0.2547
G1 X0.0023 Y-0.2618
G1 X0.0211 Y-0.2675
G1 X0.0403 Y-0.2716
G1 X0.0598 Y-0.2741
G1 X0.0794 Y-0.2751
G1 X0.099 Y-0.2745
G1 X0.1186 Y-0.2724
G1 X0.1379 Y-0.2686
G1 X0.1569 Y-0.2633
G1 X0.1753 Y-0.2566
G1 X0.1932 Y-0.2483
G1 X0.2107 Y-0.2385
G1 X0.2277 Y-0.2271
G1 X0.2456 Y-0.2127
G1 X0.2633 Y-0.1962
G1 X0.2797 Y-0.1781
G1 X0.2947 Y-0.1587
G1 X0.3079 Y-0.1383
G1 X0.3193 Y-0.1173
G1 X0.3289 Y-0.0957
G1 X0.3365 Y-0.0737
G1 X0.3423 Y-0.0515
G1 X0.3462 Y-0.0292
G1 X0.3484 Y-0.0069
G1 X0.3487 Y0.0153
G1 X0.3472 Y0.0373
G1 X0.344 Y0.059
G1 X0.3391 Y0.0803
G1 X0.3325 Y0.1012
G1 X0.3242 Y0.1214
G1 X0.3143 Y0.141
G1 X0.3028 Y0.1597
G1 X0.2899 Y0.1776
G1 X0.2754 Y0.1945
G1 X0.2595 Y0.2102
G1 X0.2424 Y0.2247
G1 X0.224 Y0.2378
G1 X0.2044 Y0.2496
G1 X0.1839 Y0.2597
G1 X0.1624 Y0.2683
G1 X0.1402 Y0.2752
G1 X0.1172 Y0.2803
G1 X0.0938 Y0.2836
G1 X0.07 Y0.2849
G1 X0.046 Y0.2844
G1 X0.022 Y0.282
G1 X-0.002 Y0.2775
G1 X-0.0256 Y0.2712
G1 X-0.0488 Y0.2629
G1 X-0.0714 Y0.2527
G1 X-0.0932 Y0.2407
G1 X-0.1141 Y0.2268
G1 X-0.1339 Y0.2113
G1 X-0.1525 Y0.1942
G1 X-0.1697 Y0.1756
G1 X-0.1854 Y0.1555
G1 X-0.1995 Y0.1342
G1 X-0.2119 Y0.1118
G1 X-0.2224 Y0.0884
G1 X-0.2311 Y0.0641
G1 X-0.2379 Y0.0391
G1 X-0.2426 Y0.0137
G1 X-0.2452 Y-0.0122
G1 X-0.2458 Y-0.0382
G1 X-0.2443 Y-0.0642
G1 X-0.2407 Y-0.09
G1 X-0.235 Y-0.1155
G1 X-0.2273 Y-0.1405
G1 X-0.2176 Y-0.1648
G1 X-0.206 Y-0.1883
G1 X-0.1925 Y-0.2108
G1 X-0.1772 Y-0.2322
G1 X-0.1604 Y-0.2521
G1 X-0.1418 Y-0.2709
G1 X-0.1218 Y-0.2881
G1 X-0.1005 Y-0.3036
G1 X-0.078 Y-0.3173
G1 X-0.0545 Y-0.3292
G1 X-0.0301 Y-0.3392
G1 X-0.0049 Y-0.3472
G1 X0.0208 Y-0.3531
G1 X0.0469 Y-0.357
G1 X0.0643 Y-0.3582
G1 X0.0907 Y-0.3585
G1 X0.1169 Y-0.3568
G1 X0.143 Y-0.3529
G1 X0.1688 Y-0.347
G1 X0.1941 Y-0.3389
G1 X0.2194 Y-0.3286
G1 X0.2445 Y-0.3159
G1 X0.2691 Y-0.3009
G1 X0.2929 Y-0.2836
G1 X0.3155 Y-0.2642
G1 X0.3366 Y-0.2429
G1 X0.3561 Y-0.2198
G1 X0.3736 Y-0.1953
G1 X0.3891 Y-0.1695
G1 X0.4023 Y-0.1427
G1 X0.4134 Y-0.115
G1 X0.4221 Y-0.0867
G1 X0.4285 Y-0.0579
G1 X0.4326 Y-0.0288
G1 X0.4343 Y0.0003
G1 X0.4336 Y0.0294
G1 X0.4307 Y0.0583
G1 X0.4254 Y0.0868
G1 X0.4179 Y0.1147
G1 X0.4081 Y0.1419
G1 X0.3962 Y0.1683
G1 X0.3822 Y0.1937
G1 X0.3662 Y0.218
G1 X0.3482 Y0.2409
G1 X0.3283 Y0.2624
G1 X0.3067 Y0.2824
G1 X0.2835 Y0.3006
G1 X0.2587 Y0.317
G1 X0.2326 Y0.3314
G1 X0.2053 Y0.3437
G1 X0.1769 Y0.3539
G1 X0.1476 Y0.3618
G1 X0.1176 Y0.3673
G1 X0.0871 Y0.3704
G1 X0.0563 Y0.3711
G1 X0.0253 Y0.3693
G1 X-0.0055 Y0.365
G1 X-0.0361 Y0.3582
G1 X-0.0661 Y0.349
G1 X-0.0955 Y0.3372
G1 X-0.1239 Y0.3232
G1 X-0.1513 Y0.3068
G1 X-0.1773 Y0.2882
G1 X-0.2019 Y0.2674
G1 X-0.2248 Y0.2447
G1 X-0.2458 Y0.2202
G1 X-0.2649 Y0.194
G1 X-0.2819 Y0.1662
G1 X-0.2966 Y0.1371
G1 X-0.309 Y0.1068
G1 X-0.3189 Y0.0755
G1 X-0.3263 Y0.0435
G1 X-0.3311 Y0.011
G1 X-0.3333 Y-0.0219
G1 X-0.3328 Y-0.0549
G1 X-0.3297 Y-0.0879
G1 X-0.324 Y-0.1205
G1 X-0.3156 Y-0.1525
G1 X-0.3047 Y-0.1839
G1 X-0.2913 Y-0.2143
G1 X-0.2829 Y-0.2297
G1 X-0.266 Y-0.2581
G1 X-0.2467 Y-0.2852
G1 X-0.2253 Y-0.3107
G1 X-0.202 Y-0.3344
G1 X-0.1767 Y-0.3562
G1 X-0.1498 Y-0.3758
G1 X-0.1214 Y-0.3933
G1 X-0.0917 Y-0.4085
G1 X-0.0608 Y-0.4212
G1 X-0.0295 Y-0.4312
G1 X0.0032 Y-0.4388
G1 X0.0363 Y-0.4438
G1 X0.0697 Y-0.4462
G1 X0.1032 Y-0.4458
G1 X0.1366 Y-0.4427
G1 X0.1698 Y-0.4369
G1 X0.2029 Y-0.4284
G1 X0.2356 Y-0.4171
G1 X0.2677 Y-0.4031
G1 X0.2986 Y-0.3865
G1 X0.328 Y-0.3676
G1 X0.3559 Y-0.3464
G1 X0.3821 Y-0.3231
G1 X0.4064 Y-0.2979
G1 X0.4288 Y-0.2709
G1 X0.449 Y-0.2423
G1 X0.467 Y-0.2123
G1 X0.4826 Y-0.181
G1 X0.4959 Y-0.1485
G1 X0.5066 Y-0.1152
G1 X0.5147 Y-0.0811
G1 X0.5202 Y-0.0465
G1 X0.5229 Y-0.0116
G1 X0.523 Y0.0234
G1 X0.5203 Y0.0583
G1 X0.5149 Y0.0929
G1 X0.5068 Y0.127
G1 X0.4961 Y0.1604
G1 X0.4829 Y0.1928
G1 X0.4671 Y0.2241
G1 X0.449 Y0.2541
G1 X0.4286 Y0.2825
G1 X0.4061 Y0.3094
G1 X0.3816 Y0.3344
G1 X0.3552 Y0.3574
G1 X0.3271 Y0.3784
G1 X0.2976 Y0.3971
G1 X0.2667 Y0.4136
G1 X0.2346 Y0.4277
G1 X0.2016 Y0.4393
G1 X0.1677 Y0.4485
G1 X0.1333 Y0.4551
G1 X0.0985 Y0.459
G1 X0.0636 Y0.4604
G1 X0.0286 Y0.4592
G1 X-0.0063 Y0.4553
G1 X-0.0407 Y0.4489
G1 X-0.0746 Y0.4401
G1 X-0.1077 Y0.4287
G1 X-0.14 Y0.4151
G1 X-0.1712 Y0.3991
G1 X-0.2011 Y0.381
G1 X-0.2297 Y0.3608
G1 X-0.2568 Y0.3385
G1 X-0.2821 Y0.3143
G1 X-0.3056 Y0.2884
G1 X-0.3273 Y0.2609
G1 X-0.3469 Y0.2319
G1 X-0.3645 Y0.2016
G1 X-0.3799 Y0.1702
G1 X-0.3931 Y0.1377
G1 X-0.404 Y0.1044
G1 X-0.4124 Y0.0704
G1 X-0.4184 Y0.0359
G1 X-0.4219 Y0.001
G1 X-0.4231 Y-0.034
G1 X-0.4218 Y-0.069
G1 X-0.4181 Y-0.1038
G1 X-0.412 Y-0.1383
G1 X-0.4034 Y-0.1722
G1 X-0.3924 Y-0.2055
G1 X-0.3792 Y-0.2379
G1 X-0.3638 Y-0.2694
G1 X-0.3462 Y-0.2996
G1 X-0.3265 Y-0.3286
G1 X-0.3049 Y-0.3562
G1 X-0.2814 Y-0.3821
G1 X-0.2562 Y-0.4065
G1 X-0.2294 Y-0.429
G1 X-0.2011 Y-0.4497
G1 X-0.1714 Y-0.4683
G1 X-0.1405 Y-0.4847
G1 X-0.1085 Y-0.499
G1 X-0.0756 Y-0.511
G1 X-0.042 Y-0.5207
G1 X-0.0077 Y-0.5282
G1 X0.0269 Y-0.5332
G1 X0.0618 Y-0.5358
G1 X0.0969 Y-0.536
G1 X0.1318 Y-0.5337
G1 X0.1665 Y-0.529
G1 X0.2008 Y-0.522
G1 X0.2346 Y-0.5128
G1 X0.2677 Y-0.5013
G1 X0.2999 Y-0.4876
G1 X0.3311 Y-0.4717
G1 X0.3613 Y-0.4538
G1 X0.3902 Y-0.434
G1 X0.4178 Y-0.4125
G1 X0.4439 Y-0.3892
G1 X0.4685 Y-0.3642
G1 X0.4914 Y-0.3377
G1 X0.5125 Y-0.3098
G1 X0.5319 Y-0.2806
G1 X0.5494 Y-0.2503
G1 X0.565 Y-0.2189
G1 X0.5784 Y-0.1865
G1 X0.5897 Y-0.1534
G1 X0.5989 Y-0.1196
G1 X0.6059 Y-0.0853
G1 X0.6108 Y-0.0506
G1 X0.6134 Y-0.0157
G1 X0.6136 Y0.0194
G1 X0.6116 Y0.0543
G1 X0.6073 Y0.0891
G1 X0.6008 Y0.1235
G1 X0.5922 Y0.1574
G1 X0.5814 Y0.1908
G1 X0.5683 Y0.2233
G1 X0.5532 Y0.2549
G1 X0.5361 Y0.2854
G1 X0.517 Y0.3148
G1 X0.4962 Y0.343
G1 X0.4736 Y0.3697
G1 X0.4492 Y0.3949
G1 X0.4233 Y0.4184
G1 X0.396 Y0.4403
G1 X0.3673 Y0.4604
G1 X0.3374 Y0.4787
G1 X0.3064 Y0.495
G1 X0.2745 Y0.5094
G1 X0.2404 Y0.522
G1 X0.2358 Y0.5231
G1 X0.2312 Y0.5236
G1 X0.2265 Y0.5235
G1 X0.2067 Y0.5224
G1 X0.1908 Y0.5223
G1 X0.1829 Y0.5229
G1 X0.1431 Y0.5281
G1 X0.1352 Y0.5294
G1 X0.1272 Y0.5313
G1 X0.0928 Y0.5376
G1 X0.0644 Y0.5415
G1 X0.0325 Y0.5432
G1 X-0.0026 Y0.5423
G1 X-0.0374 Y0.5386
G1 X-0.0718 Y0.5324
G1 X-0.1058 Y0.5237
G1 X-0.1324 Y0.515
G1 X-0.1404 Y0.5114
G1 X-0.1473 Y0.506
G1 X-0.1528 Y0.4993
G3 X-0.1422 Y0.4826 I0.0095 J-0.0056 F25.
G1 X0.1254 Y0.5096
G3 X0.1344 Y0.5251 I-0.0011 J0.011
G1 X0.1332 Y0.5272 F15.
G1 X0.1315 Y0.529
G1 X0.1295 Y0.5304
G1 X0.1272 Y0.5313
G1 X0.1113 Y0.5351 F20.
G1 X0.0557 Y0.5506
G1 X0.0398 Y0.5544
G1 X0.0239 Y0.5569
G1 X0. Y0.5599
G1 X-0.1034 Y0.5655
G1 X-0.1113 Y0.5656
G1 X-0.1167 Y0.5645
G1 X-0.1212 Y0.5625
G1 X-0.1232 Y0.5612
G1 X-0.1283 Y0.5565
G1 X-0.1311 Y0.5526
G1 X-0.133 Y0.5486
G1 X-0.1372 Y0.5327
G1 X-0.1403 Y0.5234
G1 X-0.1438 Y0.5154
G1 X-0.1533 Y0.4985
G1 X-0.1569 Y0.4929
G1 X-0.167 Y0.481
G1 X-0.1749 Y0.4732
G1 X-0.1829 Y0.4667
G1 X-0.1908 Y0.4611
G1 X-0.1988 Y0.4563
G1 X-0.2147 Y0.449
G1 X-0.2226 Y0.4461
G1 X-0.2384 Y0.4403
G1 X-0.2604 Y0.4303
G1 X-0.2844 Y0.417
G1 X-0.3084 Y0.4011
G1 X-0.334 Y0.381
G1 X-0.3597 Y0.3572
G1 X-0.3834 Y0.3315
G1 X-0.4053 Y0.3041
G1 X-0.4252 Y0.2753
G1 X-0.4432 Y0.2452
G1 X-0.4592 Y0.2141
G1 X-0.4732 Y0.1819
G1 X-0.4851 Y0.149
G1 X-0.495 Y0.1154
G1 X-0.5029 Y0.0813
G1 X-0.5088 Y0.0468
G1 X-0.5125 Y0.012
G1 X-0.5141 Y-0.023
G1 X-0.5137 Y-0.0581
G1 X-0.5112 Y-0.093
G1 X-0.5066 Y-0.1277
G1 X-0.5001 Y-0.1621
G1 X-0.4914 Y-0.1961
G1 X-0.4808 Y-0.2294
G1 X-0.4682 Y-0.2621
G1 X-0.4536 Y-0.294
G1 X-0.4372 Y-0.3249
G1 X-0.4191 Y-0.3549
G1 X-0.3993 Y-0.3837
G1 X-0.3777 Y-0.4114
G1 X-0.3546 Y-0.4377
G1 X-0.33 Y-0.4626
G1 X-0.3039 Y-0.486
G1 X-0.2766 Y-0.5078
G1 X-0.248 Y-0.5281
G1 X-0.2183 Y-0.5466
G1 X-0.1875 Y-0.5633
G1 X-0.1557 Y-0.5781
G1 X-0.1232 Y-0.5911
G1 X-0.09 Y-0.6021
G1 X-0.0561 Y-0.6113
G1 X-0.0219 Y-0.6184
G1 X0.0128 Y-0.6235
G1 X0.0477 Y-0.6265
G1 X0.0517 Y-0.6266
G1 X0.0593 Y-0.6261
G1 X0.0666 Y-0.624
G1 X0.0734 Y-0.6206
G1 X0.0875 Y-0.6115
G1 X0.0954 Y-0.6068
G1 X0.1113 Y-0.6002
G1 X0.1272 Y-0.5949
G1 X0.15 Y-0.5883
G1 X0.159 Y-0.586
G1 X0.167 Y-0.5845
G1 X0.1829 Y-0.5831
G1 X0.1988 Y-0.5827
G1 X0.2147 Y-0.5831
G1 X0.2198 Y-0.5834
G1 X0.2407 Y-0.5828
G1 X0.2649 Y-0.5802
G1 X0.2909 Y-0.5753
G1 X0.297 Y-0.573
G1 X0.3026 Y-0.5698
G1 X0.3076 Y-0.5657
G3 X0.2978 Y-0.5472 I-0.008 J0.0076 F25.
G1 X0.2144 Y-0.5613
G3 X0.2067 Y-0.5779 I0.0018 J-0.0109
G1 X0.2082 Y-0.5798 F15.
G1 X0.2101 Y-0.5814
G1 X0.2123 Y-0.5825
G1 X0.2147 Y-0.5831
G1 X0.2306 Y-0.5848 F20.
G1 X0.2385 Y-0.5862
G1 X0.2467 Y-0.5883
G1 X0.2624 Y-0.5936
G1 X0.2663 Y-0.5942
G1 X0.2703
G1 X0.2743 Y-0.5935
G1 X0.2783 Y-0.5922
G1 X0.2813 Y-0.5906
G1 X0.2862 Y-0.5866
G1 X0.3339 Y-0.54
G1 X0.3532 Y-0.5247
G1 X0.4293 Y-0.4788
G1 X0.4373 Y-0.4742
G1 X0.4452 Y-0.4709
G1 X0.4607 Y-0.4637
G1 X0.4807 Y-0.4527
G1 X0.5028 Y-0.438
G1 X0.5253 Y-0.4204
G1 X0.5492 Y-0.3982
G1 X0.5729 Y-0.3725
G1 X0.5946 Y-0.345
G1 X0.6143 Y-0.316
G1 X0.6321 Y-0.2858
G1 X0.6479 Y-0.2546
G1 X0.6619 Y-0.2224
G1 X0.6738 Y-0.1895
G1 X0.6839 Y-0.156
G1 X0.692 Y-0.1219
G1 X0.6983 Y-0.0875
G1 X0.7026 Y-0.0527
G1 X0.705 Y-0.0178
G1 X0.7054 Y0.0173
G1 X0.7038 Y0.0523
G1 X0.7002 Y0.0871
G1 X0.6948 Y0.1217
G1 X0.6875 Y0.1559
G1 X0.6783 Y0.1897
G1 X0.6672 Y0.223
G1 X0.6543 Y0.2555
G1 X0.6396 Y0.2873
G1 X0.6232 Y0.3182
G1 X0.6051 Y0.3482
G1 X0.5853 Y0.3772
G1 X0.5641 Y0.405
G1 X0.5413 Y0.4316
G1 X0.5171 Y0.4569
G1 X0.4915 Y0.4808
G1 X0.4646 Y0.5033
G1 X0.4366 Y0.5243
G1 X0.4304 Y0.5284
G1 X0.4238 Y0.532
G1 X0.4166 Y0.5342
G1 X0.4091 Y0.5349
G1 X0.3816 Y0.5344
G1 X0.3578 Y0.5332
G1 X0.2265 Y0.5235
G1 X0.2234 Y0.5229 F25.
G1 X0.2204 Y0.5219
G2 X0.1484 Y0.4932 I-0.3646 J0.8108
G1 X0.1464 Y0.4926
G1 X0.1444 Y0.4922
G1 X-0.1346 Y0.4441
G1 X-0.1366 Y0.4438
G1 X-0.1387 Y0.4437
G2 X-0.2129 Y0.4463 I-0.0055 J0.889
G1 X-0.2162 Y0.4466 F15.
G1 X-0.2194
G1 X-0.2226 Y0.4461
G1 X-0.2306 Y0.4438 F20.
G1 X-0.2385 Y0.4422
G1 X-0.2465 Y0.4412
G1 X-0.2624 Y0.4403
G1 X-0.2703 Y0.4407
G1 X-0.2875 Y0.4429
G1 X-0.2925 Y0.4439
G1 X-0.3004 Y0.4445
G1 X-0.3096
G1 X-0.3207 Y0.4435
G1 X-0.3321 Y0.4416
G1 X-0.3453 Y0.4383
G1 X-0.36 Y0.4333
G1 X-0.3756 Y0.4266
G1 X-0.3932 Y0.4173
G1 X-0.4117 Y0.4055
G1 X-0.4314 Y0.3906
G1 X-0.4528 Y0.3715
G1 X-0.4747 Y0.3486
G1 X-0.4964 Y0.3219
G1 X-0.5162 Y0.2931
G1 X-0.5339 Y0.2628
G1 X-0.5495 Y0.2315
G1 X-0.5632 Y0.1992
G1 X-0.5749 Y0.1662
G1 X-0.5848 Y0.1326
G1 X-0.5929 Y0.0985
G1 X-0.599 Y0.0641
G1 X-0.6033 Y0.0293
G1 X-0.6057 Y-0.0056
G1 X-0.6063 Y-0.0407
G1 X-0.6051 Y-0.0757
G1 X-0.602 Y-0.1106
G1 X-0.5973 Y-0.1453
G1 X-0.5907 Y-0.1797
G1 X-0.5824 Y-0.2137
G1 X-0.5722 Y-0.2472
G1 X-0.5604 Y-0.2802
G1 X-0.5469 Y-0.3125
G1 X-0.5318 Y-0.3441
G1 X-0.5151 Y-0.3749
G1 X-0.4969 Y-0.4048
G1 X-0.4772 Y-0.4337
G1 X-0.456 Y-0.4616
G1 X-0.4334 Y-0.4884
G1 X-0.4206 Y-0.502
G1 X-0.4146 Y-0.5072
G1 X-0.4077 Y-0.511
G1 X-0.4 Y-0.5134
G1 X-0.3921 Y-0.5141
G1 X-0.3737
G1 X-0.3498 Y-0.5185
G1 X-0.2735 Y-0.5406
G1 X-0.2624 Y-0.5447
G1 X-0.2465 Y-0.5525
G1 X-0.1749 Y-0.5912
G1 X-0.1554 Y-0.6042
G1 X-0.0875 Y-0.6544
G1 X-0.0805 Y-0.6599
G1 X-0.0767 Y-0.6627
G1 X-0.0618 Y-0.6721
G1 X-0.0453 Y-0.6807
G1 X-0.0337 Y-0.6856
G1 X-0.0246 Y-0.6882
G1 X-0.0151 Y-0.6885
G1 X-0.0059 Y-0.6864
G1 X0.0026 Y-0.6822
G1 X0.0098 Y-0.6759
G3 X-0.0013 Y-0.6362 I-0.0192 J0.0161 F25.
G1 X-0.0558 Y-0.6175
G3 X-0.0864 Y-0.6521 I-0.0081 J-0.0236
G1 X-0.0848 Y-0.655 F15.
G1 X-0.0828 Y-0.6576
G1 X-0.0805 Y-0.6599
G1 X-0.0708 Y-0.6678 F20.
G1 X-0.0557 Y-0.6839
G1 X-0.0441 Y-0.6967
G1 X-0.0398 Y-0.7001
G1 X-0.0358 Y-0.7022
G1 X-0.0318 Y-0.7034
G1 X-0.0278 Y-0.7039
G1 X-0.0239 Y-0.7038
G1 X-0.0199 Y-0.703
G1 X-0.0159 Y-0.7016
G1 X-0.0125 Y-0.6996
G1 X-0.008 Y-0.6957
G1 X0.0242 Y-0.6599
G1 X0.0318 Y-0.6519
G1 X0.0402 Y-0.644
G1 X0.0506 Y-0.636
G1 X0.0636 Y-0.6269
G1 X0.0734 Y-0.6206
G3 X0.0828 Y-0.5918 I-0.0142 J0.0206 F25.
G1 X-0.2711 Y0.4271
G3 X-0.2789 Y0.4383 I-0.0236 J-0.0082
G1 X-0.2816 Y0.4402 F15.
G1 X-0.2845 Y0.4417
G1 X-0.2875 Y0.4429
G1 X-0.3021 Y0.4468 F20.
G1 X-0.3101 Y0.4494
G1 X-0.3419 Y0.4635
G1 X-0.3518 Y0.4669
G1 X-0.3596 Y0.4688
G1 X-0.3683 Y0.4701
G1 X-0.378 Y0.4708
G1 X-0.3892
G1 X-0.4009 Y0.4697
G1 X-0.4147 Y0.4674
G1 X-0.4286 Y0.4638
G1 X-0.4451 Y0.4583
G1 X-0.4614 Y0.4512
G1 X-0.4804 Y0.4411
G1 X-0.499 Y0.4292
G1 X-0.5195 Y0.4135
G1 X-0.5411 Y0.3942
G1 X-0.5624 Y0.3718
G1 X-0.5845 Y0.3445
G1 X-0.6042 Y0.3156
G1 X-0.6195 Y0.2891
G1 X-0.6201 Y0.2877
G1 X-0.6211 Y0.2846 F25.
G1 X-0.6217 Y0.2814
G1 X-0.6218 Y0.2781
G1 Y0.2742 Z-0.2022
G1 X-0.6217 Y0.2704 Z-0.2013
G1 X-0.6216 Y0.2668 Z-0.1998
G1 X-0.6215 Y0.2634 Z-0.1977
G1 Y0.2605 Z-0.1952
G1 X-0.6214 Y0.2579 Z-0.1922
G1 Y0.2559 Z-0.1888
G1 Y0.2544 Z-0.1852
G1 X-0.6213 Y0.2534 Z-0.1814
G1 Y0.2531 Z-0.1775
G0 Z0.1975
G0 X-0.3437 Y0.4303
G0 Z-0.1525
G1 Z-0.1775 F15.
G1 X-0.3436 Y0.4306 Z-0.1814
G1 X-0.3434 Y0.4315 Z-0.1852
G1 X-0.343 Y0.4329 Z-0.1888
G1 X-0.3426 Y0.4349 Z-0.1922
G1 X-0.3419 Y0.4374 Z-0.1952
G1 X-0.3412 Y0.4403 Z-0.1977
G1 X-0.3404 Y0.4436 Z-0.1998
G1 X-0.3396 Y0.4471 Z-0.2013
G1 X-0.3386 Y0.4508 Z-0.2022
G1 X-0.3377 Y0.4546 Z-0.2025
G1 X-0.3375 Y0.4567
G1 X-0.3378 Y0.4588
G1 X-0.3387 Y0.4607
G1 X-0.3401 Y0.4623
G1 X-0.3419 Y0.4635
G1 X-0.3938 Y0.4866 F20.
G1 X-0.3975 Y0.4878
G1 X-0.4015 Y0.4883
G1 X-0.4055
G1 X-0.4134 Y0.4873
G1 X-0.4214 Y0.4867
G1 X-0.4293 Y0.4868
G1 X-0.4452 Y0.4879
G1 X-0.4575 Y0.4895
G1 X-0.4725 Y0.4906
G1 X-0.4831 Y0.4904
G1 X-0.4951 Y0.4891
G1 X-0.5084 Y0.4866
G1 X-0.5226 Y0.4828
G1 X-0.5344 Y0.4786
G1 X-0.5414 Y0.4752
G1 X-0.5476 Y0.4705
G1 X-0.5528 Y0.4646
G3 X-0.5409 Y0.4478 I0.0093 J-0.0061 F25.
G1 X-0.457 Y0.4679
G3 X-0.4499 Y0.4839 I-0.0026 J0.0108
G1 X-0.4513 Y0.4859 F15.
G1 X-0.4531 Y0.4876
G1 X-0.4552 Y0.4888
G1 X-0.4575 Y0.4895
G1 X-0.485 Y0.4941 F20.
G1 X-0.5009 Y0.4973
G1 X-0.5049 Y0.4984
G1 X-0.5088 Y0.4991
G1 X-0.5128
G1 X-0.5168 Y0.4984
G1 X-0.5227 Y0.4961
G1 X-0.5273 Y0.4929
G1 X-0.5406 Y0.4789
G1 X-0.5496 Y0.4691
G1 X-0.593 Y0.4055
G1 X-0.5981 Y0.3935
G1 X-0.5991 Y0.3896
G1 X-0.6018 Y0.3498
G1 X-0.6073 Y0.326
G1 X-0.6146 Y0.3021
G1 X-0.6201 Y0.2877
G1 X-0.6249 Y0.2783
G1 X-0.6405 Y0.2469
G1 X-0.654 Y0.2146
G1 X-0.6656 Y0.1816
G1 X-0.6755 Y0.148
G1 X-0.6836 Y0.1139
G1 X-0.69 Y0.0795
G1 X-0.6947 Y0.0448
G1 X-0.6977 Y0.0099
G1 X-0.6991 Y-0.0251
G1 X-0.6988 Y-0.0602
G1 X-0.6969 Y-0.0951
G1 X-0.6935 Y-0.13
G1 X-0.6884 Y-0.1646
G1 X-0.6818 Y-0.199
G1 X-0.6736 Y-0.2331
G1 X-0.6638 Y-0.2667
G1 X-0.6525 Y-0.2999
G1 X-0.6398 Y-0.3325
G1 X-0.6256 Y-0.3645
G1 X-0.616 Y-0.3837
G1 X-0.6106 Y-0.3917
G1 X-0.6035 Y-0.3981
G1 X-0.5949 Y-0.4026
G1 X-0.5873 Y-0.4055
G1 X-0.5804 Y-0.4086
G1 X-0.5716 Y-0.4134
G1 X-0.5645 Y-0.4179
G1 X-0.5486 Y-0.431
G1 X-0.5165 Y-0.4611
G1 X-0.5088 Y-0.4691
G1 X-0.4966 Y-0.485
G1 X-0.4918 Y-0.4929
G1 X-0.4878 Y-0.5009
G1 X-0.4842 Y-0.5088
G1 X-0.4816 Y-0.5128
G1 X-0.477 Y-0.5172
G1 X-0.473 Y-0.5198
G1 X-0.4691 Y-0.5215
G1 X-0.4651 Y-0.5224
G1 X-0.4611 Y-0.5227
G1 X-0.3975 Y-0.5142
G1 X-0.3921 Y-0.5141
G3 X-0.3693 Y-0.4824 I-0.0012 J0.025 F25.
G1 X-0.5798 Y0.2714
G3 X-0.6181 Y0.2853 I-0.0241 J-0.0067
G1 X-0.6206 Y0.2832 F15.
G1 X-0.6229 Y0.2809
G1 X-0.6249 Y0.2783
G1 X-0.6297 Y0.2703 F20.
G1 X-0.636 Y0.2617
G1 X-0.6419 Y0.2544
G1 X-0.6519 Y0.2444
G1 X-0.677 Y0.2226
G1 X-0.6917 Y0.2112
G1 X-0.7018 Y0.2026
G1 X-0.7108 Y0.1939
G1 X-0.7207 Y0.1825
G1 X-0.7305 Y0.1691
G1 X-0.7411 Y0.1521
G1 X-0.7514 Y0.132
G1 X-0.7616 Y0.1076
G1 X-0.7713 Y0.0778
G1 X-0.7794 Y0.0437
G1 X-0.7849 Y0.0091
G1 X-0.7881 Y-0.0257
G1 X-0.7893 Y-0.0607
G1 X-0.7886 Y-0.0958
G1 X-0.7862 Y-0.1307
G1 X-0.7821 Y-0.1655
G1 X-0.7765 Y-0.2001
G1 X-0.7694 Y-0.2343
G1 X-0.7608 Y-0.2683
G1 X-0.7508 Y-0.3019
G1 X-0.7394 Y-0.335
G1 X-0.7311 Y-0.3555
G1 X-0.7265 Y-0.3638
G1 X-0.7199 Y-0.3708
G1 X-0.7118 Y-0.3759
G1 X-0.7027 Y-0.3788
G1 X-0.6932 Y-0.3794
G1 X-0.6837 Y-0.38
G1 X-0.6678 Y-0.3817
G1 X-0.6281 Y-0.3926
G1 X-0.5949 Y-0.4026
G3 X-0.5624 Y-0.3749 I0.0078 J0.0237 F25.
G1 X-0.6525 Y0.1947
G3 X-0.6828 Y0.2152 I-0.0247 J-0.0039
G1 X-0.6859 Y0.2143 F15.
G1 X-0.6889 Y0.2129
G1 X-0.6917 Y0.2112
G1 X-0.6996 Y0.2054 F20.
G1 X-0.7119 Y0.1988
G1 X-0.7235 Y0.1939
G1 X-0.7333 Y0.1908
G1 X-0.7418 Y0.1888
G1 X-0.7517 Y0.1859
G1 X-0.7591 Y0.1828
G1 X-0.7666 Y0.1789
G1 X-0.7752 Y0.1736
G1 X-0.7844 Y0.1669
G1 X-0.7936 Y0.1589
G1 X-0.804 Y0.1483
G1 X-0.8138 Y0.1364
G1 X-0.8245 Y0.1213
G1 X-0.8346 Y0.1042
G1 X-0.8451 Y0.0827
G1 X-0.8547 Y0.0581
G1 X-0.8635 Y0.029
G1 X-0.8709 Y-0.0053
G1 X-0.8756 Y-0.04
G1 X-0.8779 Y-0.0749
G1 X-0.8781 Y-0.11
G1 X-0.8764 Y-0.1449
G1 X-0.873 Y-0.1798
G1 X-0.8681 Y-0.2145
G1 X-0.8616 Y-0.2489
G1 X-0.8537 Y-0.283
G1 X-0.8442 Y-0.3167
G1 X-0.8363 Y-0.3382
G1 X-0.8284 Y-0.3553
G1 X-0.8203 Y-0.3697
G1 X-0.8174 Y-0.374
G1 X-0.8117 Y-0.3806
G1 X-0.8047 Y-0.3858
G1 X-0.7967 Y-0.3892
G1 X-0.7881 Y-0.3908
G1 X-0.7794 Y-0.3904
G1 X-0.7314 Y-0.3832
G1 X-0.7155 Y-0.3809
G1 X-0.6932 Y-0.3794
G3 X-0.6707 Y-0.3525 I-0.0024 J0.0249 F25.
G1 X-0.7128 Y0.1662
G3 X-0.732 Y0.1885 I-0.0249 J-0.002
G1 X-0.7353 Y0.189 F15.
G1 X-0.7385 Y0.1892
G1 X-0.7418 Y0.1888
G1 X-0.7473 Y0.1877 F20.
G1 X-0.795 Y0.1829
G1 X-0.7994 Y0.1827
G1 X-0.8097 Y0.1816
G1 X-0.817 Y0.18
G1 X-0.8249 Y0.1777
G1 X-0.8333 Y0.1744
G1 X-0.8428 Y0.1698
G1 X-0.8522 Y0.1643
G1 X-0.8629 Y0.1568
G1 X-0.8732 Y0.1482
G1 X-0.8848 Y0.137
G1 X-0.8957 Y0.1245
G1 X-0.9077 Y0.1084
G1 X-0.9187 Y0.0908
G1 X-0.93 Y0.0689
G1 X-0.9405 Y0.0439
G1 X-0.95 Y0.0151
G1 X-0.9582 Y-0.019
G1 X-0.9637 Y-0.0536
G1 X-0.9667 Y-0.0884
G1 X-0.9677 Y-0.1235
G1 X-0.9667 Y-0.1585
G1 X-0.9649 Y-0.1812
G1 X-0.9639 Y-0.1873
G1 X-0.962 Y-0.1932
G1 X-0.9592 Y-0.1988
G1 X-0.9381 Y-0.2339
G1 X-0.9302 Y-0.2479
G1 X-0.927 Y-0.2544
G1 X-0.9214 Y-0.2703
G1 X-0.9142 Y-0.2942
G1 X-0.9086 Y-0.318
G1 X-0.9074 Y-0.3273
G1 X-0.907 Y-0.3321
G1 X-0.9046 Y-0.3458
G1 X-0.9016 Y-0.3577
G1 X-0.9 Y-0.3622
G1 X-0.8958 Y-0.3708
G1 X-0.8895 Y-0.3781
G1 X-0.8817 Y-0.3836
G1 X-0.8727 Y-0.387
G3 X-0.8446 Y-0.3529 I0.005 J0.0245 F25.
G1 X-0.8593 Y-0.3173
G3 X-0.9057 Y-0.3177 I-0.0231 J-0.0096
G1 X-0.9067 Y-0.3208 F15.
G1 X-0.9073 Y-0.324
G1 X-0.9074 Y-0.3273
G1 X-0.9067 Y-0.3419 F20.
G1 X-0.9069 Y-0.3613
G1 X-0.9061 Y-0.3657
G1 X-0.9036 Y-0.3717
G1 X-0.9005 Y-0.3759
G1 X-0.8959 Y-0.3801
G1 X-0.8904 Y-0.3829
G1 X-0.8843 Y-0.3844
G1 X-0.8507 Y-0.3923
G1 X-0.8315 Y-0.3975
G1 X-0.8268 Y-0.3991
G1 X-0.8229 Y-0.3999
G1 X-0.8189 Y-0.4002
G1 X-0.8149 Y-0.3997
G1 X-0.8079 Y-0.3975
G1 X-0.795 Y-0.3934
G1 X-0.7823 Y-0.3908
G1 X-0.7794 Y-0.3904
G3 X-0.7593 Y-0.3651 I-0.0049 J0.0245 F25.
G1 X-0.7745 Y0.1584
G3 X-0.7898 Y0.1808 I-0.025 J-0.0007
G1 X-0.7929 Y0.1819 F15.
G1 X-0.7962 Y0.1825
G1 X-0.7994 Y0.1827
G1 X-0.8189 Y0.1824 F20.
G1 X-0.8268 Y0.1831
G1 X-0.8348 Y0.1843
G1 X-0.8441 Y0.1865
G1 X-0.8489 Y0.188
G1 X-0.8544 Y0.1889
G1 X-0.8603 Y0.1894
G1 X-0.8673
G1 X-0.8745 Y0.1889
G1 X-0.8829 Y0.1876
G1 X-0.8918 Y0.1854
G1 X-0.9015 Y0.1822
G1 X-0.9116 Y0.178
G1 X-0.9227 Y0.1723
G1 X-0.9341 Y0.1652
G1 X-0.9462 Y0.1562
G1 X-0.9584 Y0.1455
G1 X-0.9714 Y0.1321
G1 X-0.9839 Y0.1171
G1 X-0.9972 Y0.0981
G1 X-1.0093 Y0.0775
G1 X-1.0214 Y0.0526
G1 X-1.0327 Y0.0235
G1 X-1.0427 Y-0.0098
G1 X-1.05 Y-0.0441
G1 X-1.0531 Y-0.0669
G1 X-1.0534 Y-0.075
G1 X-1.052 Y-0.083
G1 X-1.0489 Y-0.0905
G1 X-1.0443 Y-0.0972
G1 X-0.9775 Y-0.1749
G1 X-0.9592 Y-0.1988
G3 X-0.9155 Y-0.1891 I0.0194 J0.0157 F25.
G1 X-0.8289 Y0.1572
G3 X-0.8359 Y0.1813 I-0.0243 J0.0061
G1 X-0.8384 Y0.1834 F15.
G1 X-0.8411 Y0.1851
G1 X-0.8441 Y0.1865
G1 X-0.8666 Y0.1945 F20.
G1 X-0.8904 Y0.2047
G1 X-0.899 Y0.2079
G1 X-0.905 Y0.2095
G1 X-0.9116 Y0.2107
G1 X-0.9192 Y0.2115
G1 X-0.9273 Y0.2117
G1 X-0.9365 Y0.2112
G1 X-0.9462 Y0.2098
G1 X-0.957 Y0.2074
G1 X-0.9681 Y0.204
G1 X-0.9806 Y0.1991
G1 X-0.993 Y0.1929
G1 X-1.0067 Y0.1847
G1 X-1.0202 Y0.1751
G1 X-1.0346 Y0.1629
G1 X-1.0407 Y0.1569
G1 X-1.046 Y0.1503
G1 X-1.0497 Y0.1427
G1 X-1.0517 Y0.1344
G1 X-1.0546 Y0.1113
G1 X-1.0586 Y0.0954
G1 X-1.0617 Y0.0875
G1 X-1.0733 Y0.0636
G1 X-1.1009 Y0.0119
G1 X-1.1025 Y0.008
G1 X-1.1033 Y0.004
G1 X-1.1035 Y0.
G1 X-1.1031 Y-0.004
G1 X-1.0988 Y-0.0197
G1 X-1.097 Y-0.0239
G1 X-1.0764 Y-0.0595
G1 X-1.0443 Y-0.0972
G3 X-1.0033 Y-0.0909 I0.0184 J0.0169 F25.
G1 X-0.879 Y0.1717
G3 X-0.8827 Y0.1987 I-0.0226 J0.0107
G1 X-0.885 Y0.201 F15.
G1 X-0.8876 Y0.203
G1 X-0.8904 Y0.2047
G1 X-0.8984 Y0.2085 F20.
G1 X-0.9143 Y0.2181
G1 X-0.9262 Y0.2279
G1 X-0.9334 Y0.2329
G1 X-0.9383 Y0.2357
G1 X-0.9441 Y0.2383
G1 X-0.9504 Y0.2406
G1 X-0.9578 Y0.2427
G1 X-0.9658 Y0.2442
G1 X-0.9751 Y0.2453
G1 X-0.9847 Y0.2455
G1 X-0.9958 Y0.245
G1 X-1.007 Y0.2435
G1 X-1.0179 Y0.2412
G1 X-1.0236 Y0.2394
G1 X-1.032 Y0.2358
G1 X-1.0392 Y0.2303
G1 X-1.045 Y0.2232
G1 X-1.0489 Y0.215
G1 X-1.0508 Y0.2061
G1 X-1.0505 Y0.197
G1 X-1.0486 Y0.1829
G1 X-1.0495 Y0.1568
G1 X-1.0517 Y0.1344
G3 X-1.0099 Y0.1138 I0.0249 J-0.0022 F25.
G1 X-0.9259 Y0.1907
G3 X-0.9203 Y0.2201 I-0.0169 J0.0184
G1 X-0.9219 Y0.223 F15.
G1 X-0.9239 Y0.2256
G1 X-0.9262 Y0.2279
G1 X-0.9302 Y0.2311 F20.
G1 X-0.9633 Y0.2624
G1 X-0.9644 Y0.2637
G1 X-0.9668 Y0.2663
G1 X-0.971 Y0.2697
G1 X-0.9758 Y0.273
G1 X-0.9808 Y0.2759
G1 X-0.9866 Y0.2786
G1 X-0.9922 Y0.2807
G1 X-0.9979 Y0.2824
G1 X-1.0043 Y0.2837
G1 X-1.0104 Y0.2844
G1 X-1.0165 Y0.2847
G1 X-1.0231 Y0.2844
G1 X-1.0294 Y0.2836
G1 X-1.0355 Y0.2824
G1 X-1.0453 Y0.278
G1 X-1.0535 Y0.2711
G1 X-1.0594 Y0.2621
G1 X-1.0626 Y0.2519
G1 X-1.0629 Y0.2411
G1 X-1.0602 Y0.2307
G1 X-1.0546 Y0.2147
G1 X-1.052 Y0.2067
G1 X-1.0505 Y0.197
G3 X-1.0073 Y0.185 I0.0246 J0.0046 F25.
G1 X-0.9656 Y0.2318
G3 X-0.9601 Y0.2549 I-0.0187 J0.0166
G1 X-0.9611 Y0.258 F15.
G1 X-0.9626 Y0.261
G1 X-0.9644 Y0.2637
G1 X-0.9779 Y0.28 F20.
G1 X-0.9859 Y0.293
G1 X-0.9888 Y0.2974
G1 X-0.9923 Y0.3015
G1 X-0.9962 Y0.3052
G1 X-1.0005 Y0.3086
G1 X-1.0051 Y0.3114
G1 X-1.0099 Y0.3138
G1 X-1.0149 Y0.3158
G1 X-1.0201 Y0.3173
G1 X-1.0254 Y0.3183
G1 X-1.0308 Y0.3189
G1 X-1.0362 Y0.3191
G1 X-1.0418 Y0.3188
G1 X-1.0493 Y0.3175
G1 X-1.059 Y0.3139
G1 X-1.0674 Y0.3079
G1 X-1.0739 Y0.2998
G1 X-1.0779 Y0.2903
G1 X-1.0793 Y0.28
G1 X-1.0779 Y0.2698
G1 X-1.0737 Y0.2603
G3 X-1.0429 Y0.2329 I0.0659 J0.0431 F25.
G3 X-0.982 Y0.284 I0.0193 J0.0388
G1 X-0.9837 Y0.2886 F15.
G1 X-0.9859 Y0.293
G1 X-1.0045 Y0.326 F20.
G1 X-1.0072 Y0.3302
G1 X-1.0105 Y0.3345
G1 X-1.0143 Y0.3383
G1 X-1.0186 Y0.3417
G1 X-1.0231 Y0.3446
G1 X-1.0279 Y0.347
G1 X-1.0329 Y0.349
G1 X-1.0381 Y0.3505
G1 X-1.0434 Y0.3515
G1 X-1.0488 Y0.3521
G1 X-1.0543
G1 X-1.0597 Y0.3517
G1 X-1.065 Y0.3509
G1 X-1.0705 Y0.3496
G1 X-1.0785 Y0.3467
G1 X-1.0874 Y0.3415
G1 X-1.0945 Y0.334
G1 X-1.0995 Y0.325
G1 X-1.1018 Y0.3149
G1 X-1.1013 Y0.3046
G1 X-1.0981 Y0.2948
G1 X-1.0925 Y0.2862
G3 X-1.0533 Y0.2635 I0.0574 J0.0539 F25.
G3 X-1.001 Y0.3168 I0.0101 J0.0424
G1 X-1.0025 Y0.3215 F15.
G1 X-1.0045 Y0.326
G1 X-1.0234 Y0.3595 F20.
G1 X-1.0259 Y0.3633
G1 X-1.0292 Y0.3676
G1 X-1.0331 Y0.3714
G1 X-1.0373 Y0.3747
G1 X-1.0419 Y0.3776
G1 X-1.0467 Y0.3801
G1 X-1.0517 Y0.3821
G1 X-1.0568 Y0.3837
G1 X-1.0621 Y0.3849
G1 X-1.0676 Y0.3856
G1 X-1.0736 Y0.3858
G1 X-1.0838 Y0.384
G1 X-1.0932 Y0.3796
G1 X-1.1011 Y0.3728
G1 X-1.1068 Y0.3641
G1 X-1.11 Y0.3542
G1 X-1.1104 Y0.3439
G3 X-1.0979 Y0.3343 I0.011 J0.0014 F25.
G1 X-1.0317 Y0.3434
G3 X-1.0231 Y0.35 I-0.0015 J0.011
G1 X-1.0224 Y0.3523 F15.
G1 X-1.0222 Y0.3547
G1 X-1.0225 Y0.3572
G1 X-1.0234 Y0.3595
G1 X-1.0359 Y0.3816 F20.
G1 X-1.0397 Y0.3869
G1 X-1.0426 Y0.3896
G1 X-1.0654 Y0.4038
G1 X-1.0692 Y0.4059
G1 X-1.0781 Y0.4083
G1 X-1.0872 Y0.408
G1 X-1.096 Y0.4053
G1 X-1.1037 Y0.4003
G1 X-1.1096 Y0.3933
G1 X-1.1135 Y0.385
G1 X-1.1149 Y0.3759
G1 X-1.1137 Y0.3669
G3 X-1.1 Y0.3493 I0.03 J0.0093 F25.
G3 X-1.0581 Y0.3972 I0.0167 J0.0277
G1 X-1.0603 Y0.3997 F15.
G1 X-1.0627 Y0.4019
G1 X-1.0654 Y0.4038
G1 X-1.0832 Y0.4152 F20.
G1 X-1.0892 Y0.4175
G1 X-1.0932 Y0.418
G1 X-1.0972
G1 X-1.1011 Y0.4173
G1 X-1.1051 Y0.4159
G1 X-1.1094 Y0.4134
G1 X-1.1131 Y0.4103
G1 X-1.1169 Y0.4055
G1 X-1.1188 Y0.4015
G1 X-1.12 Y0.3975
G1 X-1.1204 Y0.3935
G1 X-1.1203 Y0.3896
G1 X-1.1194 Y0.3856
G1 X-1.1142 Y0.3687
G1 X-1.1129 Y0.3631
G1 X-1.1109 Y0.3485
G1 X-1.1102 Y0.3419
G1 X-1.111 Y0.314
G1 X-1.1106 Y0.3101
G1 X-1.1087 Y0.3041
G1 X-1.1065 Y0.3003
G1 X-1.1051 Y0.2985
G1 X-1.1006 Y0.2942
G1 X-1.098 Y0.2922 F25.
G1 X-1.0952 Y0.2905
G1 X-1.0921 Y0.2893
G1 X-1.0884 Y0.288 Z-0.2022
G1 X-1.0848 Y0.2868 Z-0.2013
G1 X-1.0814 Y0.2856 Z-0.1998
G1 X-1.0782 Y0.2846 Z-0.1977
G1 X-1.0754 Y0.2836 Z-0.1952
G1 X-1.073 Y0.2828 Z-0.1922
G1 X-1.071 Y0.2821 Z-0.1888
G1 X-1.0696 Y0.2817 Z-0.1852
G1 X-1.0687 Y0.2814 Z-0.1814
G1 X-1.0685 Y0.2813 Z-0.1775
G0 Z0.1975
G0 X0.4226 Y-0.4465
G0 Z-0.1525
G1 Z-0.1775 F15.
G1 X0.4228 Y-0.4468 Z-0.1814
G1 X0.4233 Y-0.4476 Z-0.1852
G1 X0.4241 Y-0.4488 Z-0.1888
G1 X0.4252 Y-0.4506 Z-0.1922
G1 X0.4265 Y-0.4527 Z-0.1952
G1 X0.4281 Y-0.4553 Z-0.1977
G1 X0.4299 Y-0.4581 Z-0.1998
G1 X0.4318 Y-0.4612 Z-0.2013
G1 X0.4339 Y-0.4644 Z-0.2022
G1 X0.4359 Y-0.4677 Z-0.2025
G1 X0.4373 Y-0.4693
G1 X0.439 Y-0.4705
G1 X0.441 Y-0.4712
G1 X0.4432 Y-0.4713
G1 X0.4452 Y-0.4709
G1 X0.4611 Y-0.4645 F20.
G1 X0.5088 Y-0.4476
G1 X0.5406 Y-0.4404
G1 X0.5565 Y-0.4373
G1 X0.5696 Y-0.4341
G1 X0.5804 Y-0.4307
G1 X0.5927 Y-0.4257
G1 X0.6063 Y-0.4188
G1 X0.6208 Y-0.41
G1 X0.6367 Y-0.3984
G1 X0.6537 Y-0.3838
G1 X0.6713 Y-0.3661
G1 X0.6901 Y-0.3438
G1 X0.7093 Y-0.317
G1 X0.7273 Y-0.287
G1 X0.743 Y-0.2557
G1 X0.7565 Y-0.2233
G1 X0.768 Y-0.1902
G1 X0.7775 Y-0.1565
G1 X0.7851 Y-0.1224
G1 X0.7909 Y-0.0878
G1 X0.795 Y-0.053
G1 X0.7972 Y-0.0181
G1 X0.7978 Y0.0169
G1 X0.7965 Y0.0519
G1 X0.7935 Y0.0868
G1 X0.7888 Y0.1215
G1 X0.7825 Y0.156
G1 X0.7744 Y0.1901
G1 X0.7648 Y0.2237
G1 X0.7535 Y0.2569
G1 X0.7407 Y0.2895
G1 X0.7262 Y0.3214
G1 X0.7102 Y0.3526
G1 X0.6928 Y0.3829
G1 X0.6739 Y0.4124
G1 X0.6536 Y0.441
G1 X0.632 Y0.4685
G1 X0.609 Y0.495
G1 X0.5897 Y0.5153
G1 X0.5825 Y0.5213
G1 X0.574 Y0.5253
G1 X0.5648 Y0.5271
G1 X0.4691 Y0.534
G1 X0.4532 Y0.5348
G1 X0.4091 Y0.5349
G3 X0.3853 Y0.5061 I0.0009 J-0.025 F25.
G1 X0.528 Y-0.4164
G3 X0.5468 Y-0.4369 I0.0247 J0.0038
G1 X0.55 Y-0.4375 F15.
G1 X0.5533 Y-0.4376
G1 X0.5565 Y-0.4373
G1 X0.5804 Y-0.4332 F20.
G1 X0.5883 Y-0.4321
G1 X0.6281 Y-0.4311
G1 X0.644 Y-0.431
G1 X0.6571 Y-0.4295
G1 X0.6674 Y-0.4274
G1 X0.6781 Y-0.4242
G1 X0.6906 Y-0.4193
G1 X0.7033 Y-0.4132
G1 X0.7176 Y-0.4048
G1 X0.7325 Y-0.3944
G1 X0.7486 Y-0.3811
G1 X0.7649 Y-0.3652
G1 X0.7824 Y-0.3451
G1 X0.8002 Y-0.3212
G1 X0.8177 Y-0.2932
G1 X0.8338 Y-0.2621
G1 X0.8476 Y-0.2298
G1 X0.8592 Y-0.1968
G1 X0.8689 Y-0.1631
G1 X0.8766 Y-0.129
G1 X0.8827 Y-0.0945
G1 X0.887 Y-0.0597
G1 X0.8897 Y-0.0248
G1 X0.8907 Y0.0102
G1 X0.89 Y0.0452
G1 X0.8878 Y0.0802
G1 X0.884 Y0.115
G1 X0.8787 Y0.1496
G1 X0.8719 Y0.184
G1 X0.8637 Y0.218
G1 X0.854 Y0.2517
G1 X0.8429 Y0.2849
G1 X0.8303 Y0.3176
G1 X0.8163 Y0.3497
G1 X0.8009 Y0.3811
G1 X0.7842 Y0.4119
G1 X0.7662 Y0.442
G1 X0.747 Y0.4712
G1 X0.7265 Y0.4997
G1 X0.7209 Y0.5068
G1 X0.7149 Y0.5128
G1 X0.7077 Y0.5174
G1 X0.6997 Y0.5202
G1 X0.6913 Y0.5213
G1 X0.636 Y0.522
G1 X0.5648 Y0.5271
G3 X0.5389 Y0.4999 I-0.001 J-0.025 F25.
G1 X0.6197 Y-0.4082
G3 X0.6345 Y-0.4288 I0.0249 J0.0022
G1 X0.6375 Y-0.43 F15.
G1 X0.6407 Y-0.4307
G1 X0.644 Y-0.431
G1 X0.7314 Y-0.4298 F20.
G1 X0.7344 Y-0.4293
G1 X0.7791 Y-0.4142
G1 X0.7912 Y-0.4094
G1 X0.8041 Y-0.4031
G1 X0.8174 Y-0.3952
G1 X0.8318 Y-0.385
G1 X0.847 Y-0.3723
G1 X0.863 Y-0.3564
G1 X0.8791 Y-0.3379
G1 X0.8961 Y-0.3147
G1 X0.9132 Y-0.2868
G1 X0.9291 Y-0.2556
G1 X0.9426 Y-0.2233
G1 X0.954 Y-0.1902
G1 X0.9633 Y-0.1564
G1 X0.9707 Y-0.1222
G1 X0.9764 Y-0.0876
G1 X0.9804 Y-0.0528
G1 X0.9828 Y-0.0179
G1 X0.9837 Y0.0171
G1 X0.9831 Y0.0521
G1 X0.9811 Y0.0871
G1 X0.9776 Y0.1219
G1 X0.9728 Y0.1566
G1 X0.9665 Y0.1911
G1 X0.9589 Y0.2253
G1 X0.9499 Y0.2591
G1 X0.9396 Y0.2926
G1 X0.9281 Y0.3257
G1 X0.9152 Y0.3583
G1 X0.9011 Y0.3903
G1 X0.8858 Y0.4218
G1 X0.8694 Y0.4527
G1 X0.8517 Y0.483
G1 X0.8386 Y0.5029
G1 X0.8324 Y0.5101
G1 X0.8247 Y0.5156
G1 X0.8158 Y0.5191
G1 X0.8064 Y0.5202
G1 X0.6913 Y0.5213
G3 X0.667 Y0.494 I0.0006 J-0.025 F25.
G1 X0.747 Y-0.3925
G3 X0.7694 Y-0.4152 I0.0249 J0.0022
G1 X0.7727 Y-0.4153 F15.
G1 X0.776 Y-0.415
G1 X0.7791 Y-0.4142
G1 X0.8982 Y-0.3737 F20.
G1 X0.9129 Y-0.3672
G1 X0.9244 Y-0.3608
G1 X0.9362 Y-0.3529
G1 X0.949 Y-0.3427
G1 X0.9625 Y-0.3301
G1 X0.9768 Y-0.3144
G1 X0.9911 Y-0.2958
G1 X1.0063 Y-0.2727
G1 X1.0215 Y-0.2447
G1 X1.0357 Y-0.2127
G1 X1.0474 Y-0.1796
G1 X1.0568 Y-0.1459
G1 X1.0642 Y-0.1117
G1 X1.0698 Y-0.0771
G1 X1.0737 Y-0.0423
G1 X1.0761 Y-0.0074
G1 X1.0769 Y0.0277
G1 X1.0763 Y0.0627
G1 X1.0743 Y0.0977
G1 X1.071 Y0.1325
G1 X1.0664 Y0.1672
G1 X1.0605 Y0.2018
G1 X1.0534 Y0.236
G1 X1.0449 Y0.27
G1 X1.0353 Y0.3037
G1 X1.0244 Y0.337
G1 X1.0124 Y0.3699
G1 X0.9993 Y0.4024
G1 X0.985 Y0.4344
G1 X0.9696 Y0.4658
G1 X0.9543 Y0.4937
G1 X0.944 Y0.5094
G1 X0.9374 Y0.5171
G1 X0.9289 Y0.5227
G1 X0.9193 Y0.526
G1 X0.9092 Y0.5266
G1 X0.8189 Y0.5203
G1 X0.8064 Y0.5202
G3 X0.7825 Y0.4927 I0.001 J-0.025 F25.
G1 X0.8661 Y-0.3522
G3 X0.8885 Y-0.3746 I0.0249 J0.0025
G1 X0.8918 Y-0.3747 F15.
G1 X0.8951 Y-0.3744
G1 X0.8982 Y-0.3737
G1 X1.0018 Y-0.3384 F20.
G1 X1.0165 Y-0.332
G1 X1.0265 Y-0.3266
G1 X1.0381 Y-0.319
G1 X1.0496 Y-0.31
G1 X1.0622 Y-0.2984
G1 X1.075 Y-0.2845
G1 X1.0888 Y-0.267
G1 X1.1022 Y-0.2469
G1 X1.1161 Y-0.2218
G1 X1.1297 Y-0.1916
G1 X1.1416 Y-0.1587
G1 X1.151 Y-0.125
G1 X1.1583 Y-0.0907
G1 X1.1637 Y-0.0561
G1 X1.1674 Y-0.0213
G1 X1.1694 Y0.0137
G1 X1.1699 Y0.0487
G1 X1.1691 Y0.0837
G1 X1.1669 Y0.1187
G1 X1.1634 Y0.1535
G1 X1.1587 Y0.1883
G1 X1.1528 Y0.2228
G1 X1.1457 Y0.2571
G1 X1.1374 Y0.2911
G1 X1.128 Y0.3249
G1 X1.1175 Y0.3583
G1 X1.106 Y0.3913
G1 X1.0933 Y0.424
G1 X1.0795 Y0.4562
G1 X1.0643 Y0.4877
G1 X1.0527 Y0.5079
G1 X1.0449 Y0.5193
G1 X1.0377 Y0.5271
G1 X1.0288 Y0.5326
G1 X1.0186 Y0.5355
G1 X1.0081
G1 X0.9779 Y0.5316
G1 X0.9092 Y0.5266
G3 X0.887 Y0.4992 I0.0027 J-0.0249 F25.
G1 X0.9697 Y-0.317
G3 X0.992 Y-0.3394 I0.0249 J0.0025
G1 X0.9953 Y-0.3395 F15.
G1 X0.9986 Y-0.3392
G1 X1.0018 Y-0.3384
G1 X1.0415 Y-0.3249 F20.
G1 X1.0654 Y-0.3154
G1 X1.0776 Y-0.3101
G1 X1.0813 Y-0.3081
G1 X1.0846 Y-0.3056
G1 X1.0879 Y-0.3021
G1 X1.109 Y-0.2703
G1 X1.1218 Y-0.2544
G1 X1.1455 Y-0.2306
G1 X1.1545 Y-0.2226
G1 X1.1608 Y-0.2179
G1 X1.1647 Y-0.2148
G1 X1.1736 Y-0.2069
G1 X1.1835 Y-0.1966
G1 X1.1935 Y-0.1844
G1 X1.2042 Y-0.1689
G1 X1.2147 Y-0.1508
G1 X1.2255 Y-0.1281
G1 X1.236 Y-0.1005
G1 X1.2457 Y-0.0675
G1 X1.2528 Y-0.0332
G1 X1.2575 Y0.0016
G1 X1.2602 Y0.0365
G1 X1.2612 Y0.0715
G1 X1.2606 Y0.1065
G1 X1.2585 Y0.1415
G1 X1.2551 Y0.1763
G1 X1.2505 Y0.211
G1 X1.2446 Y0.2456
G1 X1.2376 Y0.2799
G1 X1.2295 Y0.314
G1 X1.2204 Y0.3478
G1 X1.2102 Y0.3813
G1 X1.1989 Y0.4144
G1 X1.1865 Y0.4472
G1 X1.1727 Y0.4794
G1 X1.1596 Y0.5056
G1 X1.149 Y0.5231
G1 X1.1409 Y0.5343
G1 X1.1352 Y0.5407
G1 X1.1281 Y0.5456
G1 X1.1201 Y0.5488
G1 X1.1117 Y0.5502
G1 X1.1031 Y0.5496
G1 X1.0733 Y0.5447
G1 X1.0081 Y0.5355
G3 X0.9878 Y0.5062 I0.0043 J-0.0246 F25.
G1 X1.1224 Y-0.2017
G3 X1.1517 Y-0.2216 I0.0246 J0.0047
G1 X1.1549 Y-0.2207 F15.
G1 X1.1579 Y-0.2195
G1 X1.1608 Y-0.2179
G1 X1.1687 Y-0.2125 F20.
G1 X1.1791 Y-0.2067
G1 X1.1926 Y-0.2011
G1 X1.2085 Y-0.1961
G1 X1.2124 Y-0.1943
G1 X1.2174 Y-0.1908
G1 X1.221 Y-0.1868
G1 X1.2234 Y-0.1829
G1 X1.2424 Y-0.1352
G1 X1.2482 Y-0.117
G1 X1.2867 Y0.0119
G1 X1.2944 Y0.0795
G1 X1.2942 Y0.1113
G1 X1.2906 Y0.1908
G1 X1.2905 Y0.2067
G1 X1.2911 Y0.2147
G1 X1.2951 Y0.2385
G1 X1.2968 Y0.2465
G1 X1.2996 Y0.2637
G1 X1.3022 Y0.2837
G1 X1.3025 Y0.2881
G1 X1.3022 Y0.2953
G1 X1.3006 Y0.3023
G1 X1.2977 Y0.3088
G3 X1.2772 Y0.3035 I-0.0095 J-0.0057 F25.
G1 X1.275 Y0.2496
G3 X1.2907 Y0.2391 I0.0111 J-0.0005
G1 X1.2928 Y0.2404 F15.
G1 X1.2946 Y0.2421
G1 X1.2959 Y0.2442
G1 X1.2968 Y0.2465
G1 X1.3051 Y0.2862 F20.
G1 X1.3052 Y0.2902
G1 X1.3046 Y0.2942
G1 X1.3028 Y0.2995
G1 X1.2839 Y0.3339
G1 X1.2718 Y0.3578
G1 X1.2641 Y0.3818
G1 X1.2574 Y0.4055
G1 X1.2533 Y0.4293
G1 X1.2529 Y0.4373
G1 X1.2513 Y0.4547
G1 X1.249 Y0.4735
G1 X1.2451 Y0.4922
G1 X1.2402 Y0.5091
G1 X1.2348 Y0.5232
G1 X1.2286 Y0.5362
G1 X1.222 Y0.5476
G1 X1.2193 Y0.551
G1 X1.2162 Y0.5542
G1 X1.2128 Y0.557
G3 X1.1961 Y0.5444 I-0.0061 J-0.0092 F25.
G1 X1.2313 Y0.4338
G3 X1.249 Y0.4287 I0.0105 J0.0034
G1 X1.2507 Y0.4304 F15.
G1 X1.2519 Y0.4325
G1 X1.2527 Y0.4348
G1 X1.2529 Y0.4373
G1 X1.2513 Y0.485 F20.
G1 X1.2512 Y0.5009
G1 X1.2517 Y0.5088
G1 X1.2526 Y0.5168
G1 X1.2525 Y0.5208
G1 X1.2517 Y0.5247
G1 X1.2503 Y0.5284
G1 X1.2478 Y0.5327
G1 X1.2441 Y0.5368
G1 X1.2382 Y0.5406
G1 X1.2323 Y0.5439
G1 X1.2134 Y0.5565
G1 X1.1945 Y0.5704
G1 X1.1906 Y0.5724
G1 X1.1846 Y0.5741
G1 X1.1806 Y0.5744
G1 X1.1767 Y0.5741
G1 X1.1708 Y0.5724
G1 X1.1166 Y0.5531
G1 X1.1031 Y0.5496
G1 X1.1011 Y0.5488 Z-0.2022 F25.
G1 X1.0992 Y0.548 Z-0.2015
G1 X1.0975 Y0.5473 Z-0.2003
G1 X1.096 Y0.5467 Z-0.1988
G1 X1.095 Y0.5463 Z-0.1969
G1 X1.0944 Y0.5459 Z-0.1949
G1 X1.0941 Y0.5457 Z-0.1927
G0 Z0.1975
G0 X0.1501 Y0.4886
G0 Z-0.1025
G1 Z-0.1275 F15.
G1 Y0.4889 Z-0.1314
G1 X0.1502 Y0.4898 Z-0.1352
G1 X0.1504 Y0.4913 Z-0.1388
G1 X0.1507 Y0.4933 Z-0.1422
G1 X0.151 Y0.4958 Z-0.1452
G1 X0.1513 Y0.4988 Z-0.1477
G1 X0.1518 Y0.5021 Z-0.1498
G1 X0.1522 Y0.5057 Z-0.1513
G1 X0.1527 Y0.5095 Z-0.1522
G1 X0.1532 Y0.5134 Z-0.1525
G1 X0.1535 Y0.5183
G1 X0.1533 Y0.5232
G1 X0.153 Y0.5259 F20.
G1 X0.1514 Y0.528
G1 X0.1489 Y0.5291
G1 X0.1352 Y0.5312
G1 X0.1113 Y0.5369
G1 X0.0477 Y0.5549
G1 X0.0239 Y0.5587
G1 X0. Y0.5617
G1 X-0.1113 Y0.5677
G1 X-0.1153 Y0.5675
G1 X-0.1193 Y0.5666
G1 X-0.1243 Y0.5645
G1 X-0.1272 Y0.5625
G1 X-0.1305 Y0.5595
G1 X-0.133 Y0.5565
G1 X-0.136 Y0.5507
G1 X-0.1385 Y0.5406
G1 X-0.1438 Y0.5247
G1 X-0.1473 Y0.5168
G1 X-0.1515 Y0.5088
G1 X-0.159 Y0.4973
G1 X-0.1629 Y0.4921
G1 X-0.1779 Y0.4762
G1 X-0.1829 Y0.4719
G1 X-0.1908 Y0.4663
G1 X-0.1934 Y0.4643 F25.
G1 X-0.1963 Y0.4621
G1 X-0.1987 Y0.4605
G1 X-0.2988 Y0.3947
G2 X-0.3263 Y0.4365 I-0.0137 J0.0209
G2 X-0.3053 Y0.4395 I0.0137 J-0.0209
G1 X-0.3036 Y0.4393
G1 X-0.3019 Y0.4397
G1 X-0.3004 Y0.4407
G1 X-0.2995 Y0.442 F15.
G1 X-0.299 Y0.4436
G1 X-0.2991 Y0.4452
G1 X-0.2997 Y0.4467
G1 X-0.3007 Y0.448
G1 X-0.3021 Y0.4488
G1 X-0.3101 Y0.4515 F20.
G1 X-0.3896 Y0.4867
G1 X-0.3935 Y0.4885
G1 X-0.3975 Y0.4897
G1 X-0.4015 Y0.4903
G1 X-0.4055 Y0.4902
G1 X-0.4134 Y0.4891
G1 X-0.4214 Y0.4886
G1 X-0.4293 Y0.4887
G1 X-0.4452 Y0.4896
G1 X-0.4691 Y0.4931
G1 X-0.4929 Y0.4974
G1 X-0.5088 Y0.501
G1 X-0.5147 Y0.5009
G1 X-0.5208 Y0.4992
G1 X-0.5247 Y0.4972
G1 X-0.5273 Y0.4953
G1 X-0.5486 Y0.4733
G1 X-0.5519 Y0.4691
G1 X-0.595 Y0.4055
G1 X-0.5999 Y0.3935
G1 X-0.601 Y0.3896
G1 X-0.6035 Y0.3498
G1 X-0.607 Y0.3339
G1 X-0.6122 Y0.316
G1 X-0.6165 Y0.3021
G1 X-0.6195 Y0.2942
G1 X-0.6203 Y0.2912 F25.
G1 X-0.6207 Y0.2881
G1 Y0.285
G1 Y0.2845
G1 X-0.6197 Y0.2634
G2 X-0.6342 Y0.2554 I-0.0092 J-0.0004
G1 X-0.6349 Y0.2558
G1 X-0.6367 Y0.2565 F15.
G1 X-0.6386 Y0.2568
G1 X-0.6406 Y0.2566
G1 X-0.6424 Y0.2558
G1 X-0.644 Y0.2547
G1 X-0.6522 Y0.2465 F20.
G1 X-0.6798 Y0.2226
G1 X-0.7009 Y0.2067
G1 X-0.7164 Y0.1988
G1 X-0.7235 Y0.1959
G1 X-0.7314 Y0.1933
G1 X-0.741 Y0.1908
G1 X-0.7473 Y0.1895
G1 X-0.795 Y0.1846
G1 X-0.803 Y0.1842
G1 X-0.8202 Y0.1844
G1 X-0.8437 Y0.1883
G1 X-0.8666 Y0.1964
G1 X-0.8907 Y0.2067
G1 X-0.8984 Y0.2105
G1 X-0.9063 Y0.215
G1 X-0.9143 Y0.2202
G1 X-0.9302 Y0.2335
G1 X-0.962 Y0.2636
G1 X-0.9743 Y0.2783
G1 X-0.9844 Y0.2942
G1 X-1.0363 Y0.3856
G1 X-1.0399 Y0.3896
G1 X-1.0415 Y0.391
G1 X-1.0733 Y0.4108
G1 X-1.0852 Y0.4192
G1 X-1.0896 Y0.4214
G1 X-1.0934 Y0.4225
G1 X-1.0972 Y0.4229
G1 X-1.1011
G1 X-1.1051 Y0.4222
G1 X-1.1105 Y0.4202
G1 X-1.1131 Y0.4187
G1 X-1.1159 Y0.4165
G1 X-1.1187 Y0.4134
G1 X-1.121 Y0.4099
G1 X-1.1229 Y0.4055
G1 X-1.1238 Y0.4015
G1 X-1.124 Y0.3975
G1 X-1.1237 Y0.3935
G1 X-1.115 Y0.3644
G1 X-1.1125 Y0.3498
G1 X-1.112 Y0.3419
G1 X-1.1129 Y0.314
G1 X-1.1128 Y0.3101
G1 X-1.112 Y0.3061
G1 X-1.1096 Y0.3002
G1 X-1.1069 Y0.2963
G1 X-1.0963 Y0.2862
G1 X-1.0888 Y0.2783
G1 X-1.0813 Y0.2687
G1 X-1.0725 Y0.2544
G1 X-1.062 Y0.2306
G1 X-1.0574 Y0.2184
G1 X-1.0536 Y0.2054
G1 X-1.0504 Y0.1829
G1 X-1.051 Y0.159
G1 X-1.0544 Y0.1272
G1 X-1.0567 Y0.1099
G1 X-1.0582 Y0.1034
G1 X-1.0607 Y0.0954
G1 X-1.0636 Y0.0875
G1 X-1.0753 Y0.0636
G1 X-1.1029 Y0.0119
G1 X-1.1044 Y0.008
G1 X-1.1051 Y0.0043
G1 X-1.1053 Y0.
G1 X-1.1051 Y-0.0026
G1 X-1.1007 Y-0.0199
G1 X-1.099 Y-0.0239
G1 X-1.0785 Y-0.0596
G1 X-1.0654 Y-0.0753
G1 X-0.9732 Y-0.1829
G1 X-0.9612 Y-0.1988
G1 X-0.9421 Y-0.2306
G1 X-0.9302 Y-0.2518
G1 X-0.9257 Y-0.2624
G1 X-0.9161 Y-0.2942
G1 X-0.9104 Y-0.318
G1 X-0.9093 Y-0.326
G1 X-0.9085 Y-0.3419
G1 X-0.9088 Y-0.3617
G1 X-0.9083 Y-0.3657
G1 X-0.9063 Y-0.3713
G1 X-0.905 Y-0.3737
G1 X-0.9023 Y-0.3773
G1 X-0.8984 Y-0.381
G1 X-0.894 Y-0.3837
G1 X-0.8904 Y-0.3851
G1 X-0.8745 Y-0.3883
G1 X-0.8427 Y-0.3962
G1 X-0.8268 Y-0.4009
G1 X-0.8229 Y-0.4018
G1 X-0.8189 Y-0.402
G1 X-0.8149 Y-0.4016
G1 X-0.8109 Y-0.4005
G1 X-0.795 Y-0.3951
G1 X-0.7791 Y-0.3921
G1 X-0.7394 Y-0.3861
G1 X-0.7155 Y-0.3827
G1 X-0.6906 Y-0.3812
G1 X-0.6678 Y-0.3835
G1 X-0.6281 Y-0.3944
G1 X-0.5917 Y-0.4055
G1 X-0.5804 Y-0.4106
G1 X-0.5685 Y-0.4174
G1 X-0.5486 Y-0.4334
G1 X-0.5168 Y-0.4632
G1 X-0.5112 Y-0.4691
G1 X-0.498 Y-0.4863
G1 X-0.4929 Y-0.4949
G1 X-0.4898 Y-0.5009
G1 X-0.485 Y-0.5115
G1 X-0.4811 Y-0.5168
G1 X-0.477 Y-0.5203
G1 X-0.473 Y-0.5225
G1 X-0.4691 Y-0.5239
G1 X-0.4651 Y-0.5246
G1 X-0.4611
G1 X-0.3975 Y-0.5159
G1 X-0.3737
G1 X-0.3498 Y-0.5203
G1 X-0.2783 Y-0.5411
G1 X-0.2624 Y-0.5466
G1 X-0.2427 Y-0.5565
G1 X-0.1749 Y-0.5932
G1 X-0.167 Y-0.5983
G1 X-0.1476 Y-0.6122
G1 X-0.0875 Y-0.6566
G1 X-0.0716 Y-0.6697
G1 X-0.0581 Y-0.6837
G1 X-0.0439 Y-0.6996
G1 X-0.0398 Y-0.7028
G1 X-0.0358 Y-0.7048
G1 X-0.0318 Y-0.7061
G1 X-0.0278 Y-0.7066
G1 X-0.0239 Y-0.7065
G1 X-0.0199 Y-0.7057
G1 X-0.0159 Y-0.7042
G1 X-0.0126 Y-0.7023
G1 X-0.008 Y-0.6983
G1 X0.0318 Y-0.6542
G1 X0.0427 Y-0.644
G1 X0.065 Y-0.6281
G1 X0.0896 Y-0.6122
G1 X0.0954 Y-0.6089
G1 X0.1058 Y-0.6042
G1 X0.1193 Y-0.5993
G1 X0.1431 Y-0.592
G1 X0.159 Y-0.5878
G1 X0.167 Y-0.5863
G1 X0.1829 Y-0.5848
G1 X0.1988 Y-0.5845
G1 X0.2067
G1 X0.2147 Y-0.5849
G1 X0.2306 Y-0.5866
G1 X0.2397 Y-0.5883
G1 X0.2465 Y-0.5901
G1 X0.2624 Y-0.5956
G1 X0.2681 Y-0.5963
G1 X0.2743 Y-0.5956
G1 X0.2803 Y-0.5934
G1 X0.2842 Y-0.5908
G1 X0.3358 Y-0.5406
G1 X0.3451 Y-0.5327
G1 X0.3578 Y-0.5239
G1 X0.4357 Y-0.477
G1 X0.4452 Y-0.4726
G1 X0.4691 Y-0.4636
G1 X0.5088 Y-0.4495
G1 X0.5263 Y-0.4452
G1 X0.5565 Y-0.4391
G1 X0.5804 Y-0.4349
G1 X0.5883 Y-0.4339
G1 X0.6201 Y-0.433
G1 X0.7314 Y-0.4316
G1 X0.7354 Y-0.4309
G1 X1.0437 Y-0.326
G1 X1.0733 Y-0.3139
G1 X1.0816 Y-0.3101
G1 X1.0854 Y-0.3074
G1 X1.0892 Y-0.3033
G1 X1.1057 Y-0.2783
G1 X1.1177 Y-0.2624
G1 X1.1241 Y-0.2544
G1 X1.148 Y-0.2306
G1 X1.1573 Y-0.2226
G1 X1.1687 Y-0.2146
G1 X1.1767 Y-0.2101
G1 X1.1846 Y-0.2065
G1 X1.2005 Y-0.2003
G1 X1.2124 Y-0.1964
G1 X1.2164 Y-0.1941
G1 X1.2201 Y-0.1908
G1 X1.2225 Y-0.1879
G1 X1.2254 Y-0.1829
G1 X1.2444 Y-0.1352
G1 X1.2826 Y-0.008
G1 X1.288 Y0.0099
G1 X1.2899 Y0.0239
G1 X1.2962 Y0.0795
G1 X1.2959 Y0.1115
G1 X1.2924 Y0.1908
G1 X1.2923 Y0.2067
G1 X1.2929 Y0.2147
G1 X1.2959 Y0.2342
G1 X1.3069 Y0.2862
G1 X1.307 Y0.2902
G1 X1.3065 Y0.2942
G1 X1.3055 Y0.2977
G1 X1.3034 Y0.3021
G1 X1.2859 Y0.3339
G1 X1.2776 Y0.3498
G1 X1.2738 Y0.3578
G1 X1.2708 Y0.3657
G1 X1.2592 Y0.4055
G1 X1.2551 Y0.4293
G1 X1.2532 Y0.477
G1 X1.253 Y0.5009
G1 X1.2535 Y0.5088
G1 X1.2545 Y0.5168
G1 Y0.5208
G1 X1.2539 Y0.5247
G1 X1.2517 Y0.5307
G1 X1.2482 Y0.5356
G1 X1.2452 Y0.5385
G1 X1.2403 Y0.5417
G1 X1.2323 Y0.546
G1 X1.2244 Y0.5509
G1 X1.2005 Y0.5681
G1 X1.1948 Y0.5724
G1 X1.1926 Y0.5737
G1 X1.1886 Y0.5753
G1 X1.1846 Y0.5762
G1 X1.1806 Y0.5764
G1 X1.1767 Y0.576
G1 X1.1608 Y0.5707
G1 X1.1131 Y0.5537
G1 X1.1051 Y0.5518
G1 X1.0813 Y0.5476
G1 X0.9779 Y0.5333
G1 X0.8189 Y0.522
G1 X0.7712 Y0.5222
G1 X0.636 Y0.5237
G1 X0.4691 Y0.5358
G1 X0.4532 Y0.5366
G1 X0.3975
G1 X0.3657 Y0.5355
G1 X0.2147 Y0.5244
G1 X0.1908 Y0.5241
G1 X0.1821 Y0.5247
G1 X0.1489 Y0.5291
G1 X0.1476 Z-0.1524 F25.
G1 X0.1463 Y0.5292 Z-0.1521
G1 X0.1444 Y0.5289 Z-0.1514
G1 X0.1426 Y0.5287 Z-0.1502
G1 X0.1412 Y0.5285 Z-0.1486
G1 X0.1401 Y0.5283 Z-0.1468
G1 X0.1394 Y0.5282 Z-0.1448
G1 X0.1392 Z-0.1427
G0 Z0.1975
G0 X0.1471 Y0.4907
G0 Z-0.0525
G1 Z-0.0775 F15.
G1 Y0.4911 Z-0.0814
G1 X0.1472 Y0.492 Z-0.0852
G1 X0.1474 Y0.4934 Z-0.0888
G1 X0.1477 Y0.4955 Z-0.0922
G1 X0.148 Y0.498 Z-0.0952
G1 X0.1484 Y0.501 Z-0.0977
G1 X0.1488 Y0.5043 Z-0.0998
G1 X0.1492 Y0.5079 Z-0.1013
G1 X0.1497 Y0.5117 Z-0.1022
G1 X0.1502 Y0.5155 Z-0.1025
G1 X0.1505 Y0.5205
G1 X0.1504 Y0.5254
G1 X0.15 Y0.5281 F20.
G1 X0.1484 Y0.5302
G1 X0.1459 Y0.5313
G1 X0.1352 Y0.533
G1 X0.1113 Y0.5387
G1 X0.0557 Y0.5544
G1 X0.0318 Y0.5593
G1 X0. Y0.5634
G1 X-0.1153 Y0.5696
G1 X-0.1193 Y0.5692
G1 X-0.1252 Y0.5673
G1 X-0.13 Y0.5645
G1 X-0.1326 Y0.5624
G1 X-0.1352 Y0.5596
G1 X-0.1382 Y0.5545
G1 X-0.1401 Y0.5486
G1 X-0.1431 Y0.5375
G1 X-0.1479 Y0.5247
G1 X-0.1516 Y0.5168
G1 X-0.1564 Y0.5088
G1 X-0.1619 Y0.5009
G1 X-0.1635 Y0.498 F25.
G1 X-0.1647 Y0.495
G1 X-0.1655 Y0.4918
G1 X-0.1661 Y0.4879 Z-0.1022
G1 X-0.1668 Y0.4842 Z-0.1013
G1 X-0.1675 Y0.4806 Z-0.0998
G1 X-0.168 Y0.4773 Z-0.0977
G1 X-0.1686 Y0.4744 Z-0.0952
G1 X-0.169 Y0.4719 Z-0.0922
G1 X-0.1694 Y0.4699 Z-0.0888
G1 X-0.1697 Y0.4684 Z-0.0852
G1 X-0.1698 Y0.4675 Z-0.0814
G1 X-0.1699 Y0.4672 Z-0.0775
G0 Z0.1975
G0 X-0.3372 Y0.4536
G0 Z-0.0525
G1 Z-0.0775 F15.
G1 X-0.337 Y0.4535 Z-0.0814
G1 X-0.3361 Y0.4531 Z-0.0852
G1 X-0.3347 Y0.4526 Z-0.0888
G1 X-0.3328 Y0.4519 Z-0.0922
G1 X-0.3304 Y0.4509 Z-0.0952
G1 X-0.3276 Y0.4499 Z-0.0977
G1 X-0.3245 Y0.4487 Z-0.0998
G1 X-0.3211 Y0.4474 Z-0.1013
G1 X-0.3175 Y0.446 Z-0.1022
G1 X-0.3139 Y0.4446 Z-0.1025
G1 X-0.3123 Y0.4443
G1 X-0.3106 Y0.4445
G1 X-0.3091 Y0.4453
G1 X-0.308 Y0.4465
G1 X-0.3074 Y0.4481
G1 X-0.3073 Y0.4497
G1 X-0.3077 Y0.4514
G1 X-0.3087 Y0.4527
G1 X-0.3101 Y0.4537
G1 X-0.3498 Y0.4708 F20.
G1 X-0.3935 Y0.4904
G1 X-0.3975 Y0.4916
G1 X-0.4015 Y0.4922
G1 X-0.4055 Y0.4921
G1 X-0.4134 Y0.491
G1 X-0.4214 Y0.4904
G1 X-0.4293 Y0.4905
G1 X-0.4452 Y0.4914
G1 X-0.4611 Y0.4936
G1 X-0.485 Y0.4977
G1 X-0.5009 Y0.501
G1 X-0.5088 Y0.503
G1 X-0.5128 Y0.5032
G1 X-0.5168 Y0.5027
G1 X-0.5222 Y0.5009
G1 X-0.5266 Y0.4983
G1 X-0.5327 Y0.4925
G1 X-0.5486 Y0.476
G1 X-0.5565 Y0.4654
G1 X-0.5963 Y0.4068
G1 X-0.6018 Y0.3935
G1 X-0.6028 Y0.3896
G1 X-0.6047 Y0.3578
G1 X-0.6053 Y0.3498
G1 X-0.6086 Y0.3339
G1 X-0.6183 Y0.3021
G1 X-0.6201 Y0.2973
G1 X-0.6249 Y0.2862
G1 X-0.629 Y0.2783
G1 X-0.636 Y0.2675
G1 X-0.644 Y0.2574
G1 X-0.6547 Y0.2465
G1 X-0.6758 Y0.2283
G1 X-0.6936 Y0.2147
G1 X-0.696 Y0.2125
G1 X-0.6981 Y0.21
G1 X-0.6999 Y0.2072
G2 X-0.7282 Y0.1951 I-0.0219 J0.0121
G1 X-0.7298 Y0.1954
G1 X-0.7314 Y0.1952
G1 X-0.7394 Y0.193
G1 X-0.7473 Y0.1913
G1 X-0.795 Y0.1864
G1 X-0.8202 Y0.1862
G1 X-0.8427 Y0.1898
G1 X-0.8677 Y0.1988
G1 X-0.8904 Y0.2085
G1 X-0.9024 Y0.2147
G1 X-0.9145 Y0.2226
G1 X-0.9243 Y0.2306
G1 X-0.9581 Y0.2624
G1 X-0.962 Y0.2662
G1 X-0.9722 Y0.2783
G1 X-0.987 Y0.3021
G1 X-1.0352 Y0.3871
G1 X-1.0394 Y0.3915
G1 X-1.0415 Y0.3932
G1 X-1.0741 Y0.4134
G1 X-1.0892 Y0.4245
G1 X-1.0932 Y0.4263
G1 X-1.0972 Y0.4274
G1 X-1.1011 Y0.4278
G1 X-1.1051 Y0.4276
G1 X-1.1091 Y0.4267
G1 X-1.1131 Y0.425
G1 X-1.1157 Y0.4234
G1 X-1.1183 Y0.4214
G1 X-1.121 Y0.4187
G1 X-1.1231 Y0.4161
G1 X-1.1246 Y0.4134
G1 X-1.1262 Y0.4094
G1 X-1.1271 Y0.4055
G1 X-1.1273 Y0.4015
G1 X-1.1268 Y0.3975
G1 X-1.1169 Y0.3644
G1 X-1.1138 Y0.3419
G1 X-1.1144 Y0.318
G1 X-1.1149 Y0.3101
G1 X-1.1145 Y0.3061
G1 X-1.1131 Y0.301
G1 X-1.1113 Y0.2976
G1 X-1.1089 Y0.2942
G1 X-1.0892 Y0.2749
G1 X-1.0813 Y0.2646
G1 X-1.0748 Y0.2544
G1 X-1.0639 Y0.2306
G1 X-1.0574 Y0.2128
G1 X-1.0557 Y0.2067
G1 X-1.0522 Y0.1829
G1 X-1.0527 Y0.159
G1 X-1.0562 Y0.1272
G1 X-1.0588 Y0.1082
G1 X-1.0655 Y0.0875
G1 X-1.0773 Y0.0636
G1 X-1.1051 Y0.0114
G1 X-1.1063 Y0.008
G1 X-1.1071 Y0.004
G1 X-1.1072 Y0.
G1 X-1.1067 Y-0.004
G1 X-1.1025 Y-0.0199
G1 X-1.1009 Y-0.0239
G1 X-1.0797 Y-0.061
G1 X-1.0572 Y-0.0875
G1 X-0.9753 Y-0.1829
G1 X-0.962 Y-0.2006
G1 X-0.9395 Y-0.2385
G1 X-0.9349 Y-0.2465
G1 X-0.9302 Y-0.2567
G1 X-0.9249 Y-0.2703
G1 X-0.9158 Y-0.3021
G1 X-0.9122 Y-0.318
G1 X-0.9111 Y-0.326
G1 X-0.9102 Y-0.3419
G1 X-0.9106 Y-0.3617
G1 X-0.9104 Y-0.3657
G1 X-0.9095 Y-0.3697
G1 X-0.9079 Y-0.3737
G1 X-0.9063 Y-0.3763
G1 X-0.9043 Y-0.3789
G1 X-0.9014 Y-0.3816
G1 X-0.8984 Y-0.3838
G1 X-0.8944 Y-0.3858
G1 X-0.8904 Y-0.3871
G1 X-0.8769 Y-0.3896
G1 X-0.845 Y-0.3975
G1 X-0.8268 Y-0.4028
G1 X-0.8229 Y-0.4037
G1 X-0.8189 Y-0.4039
G1 X-0.8149 Y-0.4035
G1 X-0.8109 Y-0.4024
G1 X-0.803 Y-0.3995
G1 X-0.795 Y-0.3971
G1 X-0.7871 Y-0.3952
G1 X-0.7513 Y-0.3896
G1 X-0.7155 Y-0.3845
G1 X-0.6904 Y-0.383
G1 X-0.6678 Y-0.3853
G1 X-0.6281 Y-0.3962
G1 X-0.595 Y-0.4064
G1 X-0.587 Y-0.4095
G1 X-0.579 Y-0.4134
G1 X-0.5724 Y-0.4171
G1 X-0.5645 Y-0.4225
G1 X-0.5557 Y-0.4293
G1 X-0.5327 Y-0.4505
G1 X-0.5168 Y-0.4657
G1 X-0.5088 Y-0.4746
G1 X-0.501 Y-0.485
G1 X-0.4961 Y-0.4929
G1 X-0.4918 Y-0.5009
G1 X-0.4869 Y-0.5121
G1 X-0.484 Y-0.5168
G1 X-0.4805 Y-0.5204
G1 X-0.477 Y-0.523
G1 X-0.4713 Y-0.5255
G1 X-0.4651 Y-0.5266
G1 X-0.4611 Y-0.5264
G1 X-0.3975 Y-0.5177
G1 X-0.3737
G1 X-0.3498 Y-0.5221
G1 X-0.2783 Y-0.5429
G1 X-0.2703 Y-0.5457
G1 X-0.2544 Y-0.5524
G1 X-0.1829 Y-0.5909
G1 X-0.1731 Y-0.5963
G1 X-0.159 Y-0.6059
G1 X-0.0875 Y-0.659
G1 X-0.0716 Y-0.6721
G1 X-0.0605 Y-0.6837
G1 X-0.043 Y-0.7031
G1 X-0.0377 Y-0.7067
G1 X-0.0318 Y-0.7087
G1 X-0.0278 Y-0.7092
G1 X-0.0239 Y-0.7091
G1 X-0.0207 Y-0.7086
G1 X-0.0159 Y-0.7069
G1 X-0.0119 Y-0.7046
G1 X-0.008 Y-0.701
G1 X0.0318 Y-0.6568
G1 X0.0398 Y-0.649
G1 X0.0477 Y-0.6427
G1 X0.0682 Y-0.6281
G1 X0.093 Y-0.6122
G1 X0.1034 Y-0.607
G1 X0.1113 Y-0.6038
G1 X0.1352 Y-0.5961
G1 X0.1638 Y-0.5883
G1 X0.1829 Y-0.5866
G1 X0.1988 Y-0.5862
G1 X0.2067
G1 X0.2147 Y-0.5867
G1 X0.2306 Y-0.5884
G1 X0.2385 Y-0.5899
G1 X0.2465 Y-0.592
G1 X0.2624 Y-0.5976
G1 X0.2663 Y-0.5982
G1 X0.2703
G1 X0.2743 Y-0.5977
G1 X0.2789 Y-0.5963
G1 X0.2844 Y-0.5931
G1 X0.3339 Y-0.5449
G1 X0.3481 Y-0.5327
G1 X0.3598 Y-0.5247
G1 X0.4373 Y-0.4782
G1 X0.4452 Y-0.4743
G1 X0.4691 Y-0.4654
G1 X0.5088 Y-0.4513
G1 X0.5168 Y-0.4489
G1 X0.5565 Y-0.4409
G1 X0.5804 Y-0.4367
G1 X0.5883 Y-0.4356
G1 X0.6201 Y-0.4347
G1 X0.7314 Y-0.4333
G1 X0.7354 Y-0.4327
G1 X1.0415 Y-0.3286
G1 X1.0733 Y-0.3158
G1 X1.0813 Y-0.3123
G1 X1.0849 Y-0.3101
G1 X1.0892 Y-0.3061
G1 X1.0974 Y-0.2942
G1 X1.1133 Y-0.2703
G1 X1.121 Y-0.2607
G1 X1.129 Y-0.252
G1 X1.1528 Y-0.2286
G1 X1.1608 Y-0.2224
G1 X1.1687 Y-0.2167
G1 X1.1767 Y-0.2121
G1 X1.1846 Y-0.2082
G1 X1.2005 Y-0.2021
G1 X1.2116 Y-0.1988
G1 X1.2164 Y-0.1964
G1 X1.2195 Y-0.1941
G1 X1.2244 Y-0.1886
G1 X1.2272 Y-0.1829
G1 X1.2431 Y-0.1431
G1 X1.2536 Y-0.1113
G1 X1.2902 Y0.0119
G1 X1.2981 Y0.0795
G1 X1.2985 Y0.0875
G1 X1.2969 Y0.1272
G1 X1.2941 Y0.1908
G1 X1.294 Y0.2067
G1 X1.2947 Y0.2147
G1 X1.2986 Y0.2385
G1 X1.3087 Y0.2862
G1 X1.3089 Y0.2902
G1 X1.3084 Y0.2942
G1 X1.3073 Y0.2981
G1 X1.301 Y0.3101
G1 X1.2837 Y0.3419
G1 X1.2758 Y0.3578
G1 X1.2701 Y0.3737
G1 X1.261 Y0.4055
G1 X1.2568 Y0.4293
G1 X1.2549 Y0.477
G1 X1.2547 Y0.5009
G1 X1.2553 Y0.5088
G1 X1.2565 Y0.5204
G1 X1.256 Y0.5247
G1 X1.254 Y0.5307
G1 X1.2509 Y0.5356
G1 X1.2482 Y0.5386
G1 X1.2458 Y0.5406
G1 X1.2315 Y0.5486
G1 X1.2195 Y0.5565
G1 X1.2005 Y0.5703
G1 X1.1953 Y0.5744
G1 X1.1926 Y0.5759
G1 X1.1886 Y0.5774
G1 X1.1846 Y0.5783
G1 X1.1806 Y0.5784
G1 X1.1767 Y0.578
G1 X1.1528 Y0.5697
G1 X1.1131 Y0.5556
G1 X1.1051 Y0.5536
G1 X1.076 Y0.5486
G1 X0.9779 Y0.5351
G1 X0.8189 Y0.5237
G1 X0.7712 Y0.5239
G1 X0.636 Y0.5255
G1 X0.4691 Y0.5375
G1 X0.4532 Y0.5383
G1 X0.3975 Y0.5384
G1 X0.3657 Y0.5373
G1 X0.2147 Y0.5262
G1 X0.1908 Y0.5258
G1 X0.1829 Y0.5264
G1 X0.1459 Y0.5313
G1 X0.1446 Z-0.1024 F25.
G1 X0.1434 Y0.5314 Z-0.1021
G1 X0.1414 Y0.5311 Z-0.1014
G1 X0.1396 Y0.5309 Z-0.1002
G1 X0.1382 Y0.5306 Z-0.0986
G1 X0.1371 Y0.5305 Z-0.0968
G1 X0.1364 Y0.5304 Z-0.0948
G1 X0.1362 Y0.5303 Z-0.0927
G0 Z0.1975
G0 X-0.194 Y0.4285
G0 Z-0.0025
G1 Z-0.0275 F15.
G1 X-0.1941 Y0.4288 Z-0.0314
G1 X-0.1943 Y0.4297 Z-0.0352
G1 X-0.1947 Y0.4312 Z-0.0388
G1 X-0.1951 Y0.4332 Z-0.0422
G1 X-0.1957 Y0.4357 Z-0.0452
G1 X-0.1964 Y0.4386 Z-0.0477
G1 X-0.1971 Y0.4418 Z-0.0498
G1 X-0.198 Y0.4454 Z-0.0513
G1 X-0.1988 Y0.4491 Z-0.0522
G1 X-0.1997 Y0.4529 Z-0.0525
G1 X-0.2007 Y0.456
G1 X-0.2022 Y0.459
G1 X-0.2042 Y0.4616
G1 X-0.2061 Y0.4635 F20.
G1 X-0.2086 Y0.4643
G1 X-0.2112 Y0.4637
G1 X-0.2135 Y0.4623 F25.
G1 X-0.2156 Y0.4606
G1 X-0.2189 Y0.4576
G1 X-0.284 Y0.3998
G2 X-0.3172 Y0.4372 I-0.0166 J0.0187
G2 X-0.3018 Y0.4434 I0.0166 J-0.0187
G1 X-0.3005 Y0.4437
G1 X-0.2992 Y0.4443
G1 X-0.2982 Y0.4452
G1 X-0.2974 Y0.4466 F15.
G1 X-0.297 Y0.4482
G1 X-0.2972 Y0.4498
G1 X-0.2979 Y0.4513
G1 X-0.2991 Y0.4524
G1 X-0.3005 Y0.4532
G1 X-0.3101 Y0.4559 F20.
G1 X-0.3419 Y0.4692
G1 X-0.3953 Y0.4929
G1 X-0.4015 Y0.4941
G1 X-0.4055 Y0.494
G1 X-0.4134 Y0.4929
G1 X-0.4214 Y0.4923
G1 X-0.4293
G1 X-0.4452 Y0.4932
G1 X-0.4611 Y0.4954
G1 X-0.485 Y0.4995
G1 X-0.5009 Y0.5028
G1 X-0.5088 Y0.5049
G1 X-0.5128 Y0.5051
G1 X-0.5168 Y0.5047
G1 X-0.5227 Y0.5028
G1 X-0.5261 Y0.5009
G1 X-0.5294 Y0.4984
G1 X-0.5499 Y0.477
G1 X-0.5615 Y0.4611
G1 X-0.5977 Y0.4078
G1 X-0.6021 Y0.3975
G1 X-0.6042 Y0.3913
G1 X-0.605 Y0.3816
G1 X-0.6059 Y0.3657
G1 X-0.6076 Y0.3458
G1 X-0.6128 Y0.326
G1 X-0.6202 Y0.3021
G1 X-0.6233 Y0.2942
G1 X-0.6281 Y0.284
G1 X-0.6319 Y0.277
G1 X-0.6363 Y0.2703
G1 X-0.644 Y0.2603
G1 X-0.6519 Y0.2515
G1 X-0.6758 Y0.2306
G1 X-0.7036 Y0.2093
G1 X-0.7155 Y0.2035
G1 X-0.7278 Y0.1983
G1 X-0.7394 Y0.1949
G1 X-0.7473 Y0.1931
G1 X-0.7871 Y0.1889
G1 X-0.795 Y0.1881
G1 X-0.8202 Y0.188
G1 X-0.8427 Y0.1916
G1 X-0.8666 Y0.2002
G1 X-0.8904 Y0.2104
G1 X-0.8986 Y0.2147
G1 X-0.9114 Y0.2226
G1 X-0.9143 Y0.2246
G1 X-0.9222 Y0.231
G1 X-0.9555 Y0.2624
G1 X-0.9635 Y0.2703
G1 X-0.97 Y0.2783
G1 X-0.9859 Y0.3037
G1 X-1.0336 Y0.3879
G1 X-1.0382 Y0.3929
G1 X-1.0451 Y0.3975
G1 X-1.0733 Y0.415
G1 X-1.082 Y0.4214
G1 X-1.0917 Y0.4293
G1 X-1.0972 Y0.432
G1 X-1.1011 Y0.433
G1 X-1.1051 Y0.4333
G1 X-1.1091 Y0.433
G1 X-1.1131 Y0.432
G1 X-1.1187 Y0.4293
G1 X-1.121 Y0.4277
G1 X-1.1243 Y0.4245
G1 X-1.128 Y0.4193
G1 X-1.1302 Y0.4134
G1 X-1.1308 Y0.4094
G1 Y0.4055
G1 X-1.1302 Y0.4016
G1 X-1.1189 Y0.3657
G1 X-1.1156 Y0.3419
G1 X-1.1161 Y0.318
G1 X-1.1168 Y0.3101
G1 Y0.3061
G1 X-1.1161 Y0.3021
G1 X-1.1149 Y0.2985
G1 X-1.1125 Y0.2942
G1 X-1.1094 Y0.2904
G1 X-1.1045 Y0.2862
G1 X-1.0962 Y0.2783
G1 X-1.089 Y0.2703
G1 X-1.0813 Y0.2606
G1 X-1.0773 Y0.2544
G1 X-1.0654 Y0.2295
G1 X-1.0582 Y0.2095
G1 X-1.0574 Y0.2061
G1 X-1.054 Y0.1829
G1 X-1.0545 Y0.159
G1 X-1.0588 Y0.1193
G1 X-1.0603 Y0.11
G1 X-1.0644 Y0.0954
G1 X-1.0674 Y0.0875
G1 X-1.0813 Y0.0599
G1 X-1.107 Y0.0116
G1 X-1.1082 Y0.008
G1 X-1.1089 Y0.004
G1 X-1.109 Y0.
G1 X-1.1085 Y-0.004
G1 X-1.1051 Y-0.0169
G1 X-1.1029 Y-0.0239
G1 X-1.0813 Y-0.0618
G1 X-1.0049 Y-0.1511
G1 X-0.9776 Y-0.1829
G1 X-0.9654 Y-0.1988
G1 X-0.9461 Y-0.2306
G1 X-0.9369 Y-0.2465
G1 X-0.9302 Y-0.2605
G1 X-0.9244 Y-0.2783
G1 X-0.9176 Y-0.3021
G1 X-0.914 Y-0.318
G1 X-0.9128 Y-0.326
G1 X-0.912 Y-0.3419
G1 X-0.9124 Y-0.3657
G1 X-0.9117 Y-0.3697
G1 X-0.9104 Y-0.3737
G1 X-0.9087 Y-0.3769
G1 X-0.905 Y-0.3816
G1 X-0.9017 Y-0.3845
G1 X-0.8984 Y-0.3865
G1 X-0.8944 Y-0.3881
G1 X-0.8825 Y-0.3901
G1 X-0.8507 Y-0.3978
G1 X-0.8236 Y-0.4055
G1 X-0.8189 Y-0.4058
G1 X-0.8133 Y-0.405
G1 X-0.803 Y-0.4013
G1 X-0.7871 Y-0.3968
G1 X-0.7553 Y-0.3919
G1 X-0.7155 Y-0.3862
G1 X-0.6904 Y-0.3848
G1 X-0.6678 Y-0.3871
G1 X-0.6281 Y-0.398
G1 X-0.5963 Y-0.4078
G1 X-0.5826 Y-0.4134
G1 X-0.5724 Y-0.4191
G1 X-0.5584 Y-0.4293
G1 X-0.5324 Y-0.4532
G1 X-0.5159 Y-0.4691
G1 X-0.5088 Y-0.4774
G1 X-0.5009 Y-0.4886
G1 X-0.4939 Y-0.5009
G1 X-0.4877 Y-0.5148
G1 X-0.485 Y-0.5189
G1 X-0.4817 Y-0.5223
G1 X-0.477 Y-0.5255
G1 X-0.473 Y-0.5272
G1 X-0.4691 Y-0.5282
G1 X-0.4651 Y-0.5285
G1 X-0.4532 Y-0.5271
G1 X-0.3975 Y-0.5195
G1 X-0.3737
G1 X-0.3498 Y-0.5239
G1 X-0.2783 Y-0.5447
G1 X-0.2677 Y-0.5486
G1 X-0.2544 Y-0.5543
G1 X-0.1829 Y-0.5929
G1 X-0.1749 Y-0.5973
G1 X-0.1643 Y-0.6042
G1 X-0.0954 Y-0.655
G1 X-0.0701 Y-0.6758
G1 X-0.0441 Y-0.7047
G1 X-0.0398 Y-0.7081
G1 X-0.0358 Y-0.7101
G1 X-0.0318 Y-0.7113
G1 X-0.0278 Y-0.7119
G1 X-0.0239 Y-0.7118
G1 X-0.0199 Y-0.711
G1 X-0.0159 Y-0.7095
G1 X-0.0125 Y-0.7076
G1 X-0.008 Y-0.7037
G1 X0.0318 Y-0.6595
G1 X0.0398 Y-0.6513
G1 X0.0491 Y-0.644
G1 X0.0716 Y-0.628
G1 X0.0875 Y-0.6177
G1 X0.0972 Y-0.6122
G1 X0.1113 Y-0.6056
G1 X0.1431 Y-0.5956
G1 X0.159 Y-0.5914
G1 X0.167 Y-0.5898
G1 X0.1829 Y-0.5883
G1 X0.1988 Y-0.588
G1 X0.2137 Y-0.5883
G1 X0.2306 Y-0.5903
G1 X0.2385 Y-0.5917
G1 X0.2465 Y-0.5939
G1 X0.2624 Y-0.5995
G1 X0.2663 Y-0.6003
G1 X0.2703 Y-0.6004
G1 X0.2743 Y-0.5998
G1 X0.2783 Y-0.5987
G1 X0.2831 Y-0.5963
G1 X0.2862 Y-0.5939
G1 X0.3339 Y-0.5473
G1 X0.3419 Y-0.5402
G1 X0.3512 Y-0.5327
G1 X0.3632 Y-0.5247
G1 X0.4373 Y-0.4802
G1 X0.4532 Y-0.473
G1 X0.5088 Y-0.4532
G1 X0.5247 Y-0.4488
G1 X0.5724 Y-0.4398
G1 X0.5883 Y-0.4374
G1 X0.6201 Y-0.4365
G1 X0.7314 Y-0.4351
G1 X0.7354 Y-0.4345
G1 X1.0415 Y-0.3304
G1 X1.0733 Y-0.3177
G1 X1.0846 Y-0.3125
G1 X1.0892 Y-0.3088
G1 X1.092 Y-0.3055
G1 X1.1131 Y-0.2738
G1 X1.121 Y-0.2634
G1 X1.129 Y-0.2544
G1 X1.1545 Y-0.2296
G1 X1.1608 Y-0.2246
G1 X1.1687 Y-0.2189
G1 X1.1767 Y-0.2142
G1 X1.1846 Y-0.2101
G1 X1.2005 Y-0.204
G1 X1.2123 Y-0.2004
G1 X1.2164 Y-0.1986
G1 X1.2204 Y-0.1958
G1 X1.2251 Y-0.1908
G1 X1.2275 Y-0.1868
G1 X1.245 Y-0.1431
G1 X1.2578 Y-0.1034
G1 X1.292 Y0.0119
G1 X1.2997 Y0.0795
G1 X1.2994 Y0.1113
G1 X1.2959 Y0.1908
G1 Y0.2117
G1 X1.2987 Y0.2306
G1 X1.3105 Y0.2862
G1 X1.3107 Y0.2902
G1 X1.3103 Y0.2942
G1 X1.3092 Y0.2981
G1 X1.3074 Y0.3021
G1 X1.2856 Y0.3419
G1 X1.28 Y0.3525
G1 X1.2777 Y0.3578
G1 X1.2696 Y0.3816
G1 X1.2628 Y0.4055
G1 X1.2586 Y0.4293
G1 X1.2567 Y0.477
G1 X1.2565 Y0.5009
G1 X1.2571 Y0.5088
G1 X1.2585 Y0.5208
G1 X1.2583 Y0.5247
G1 X1.2575 Y0.5284
G1 X1.2558 Y0.5327
G1 X1.2533 Y0.5367
G1 X1.2495 Y0.5406
G1 X1.2482 Y0.5416
G1 X1.2323 Y0.5502
G1 X1.2085 Y0.5665
G1 X1.1965 Y0.5758
G1 X1.1926 Y0.5781
G1 X1.1886 Y0.5795
G1 X1.1838 Y0.5804
G1 X1.1801
G1 X1.1767 Y0.5799
G1 X1.121 Y0.5603
G1 X1.1051 Y0.5551
G1 X1.0733 Y0.55
G1 X0.9779 Y0.5368
G1 X0.8189 Y0.5255
G1 X0.7712 Y0.5256
G1 X0.636 Y0.5272
G1 X0.4691 Y0.5393
G1 X0.4532 Y0.5401
G1 X0.3975
G1 X0.3657 Y0.539
G1 X0.2147 Y0.5279
G1 X0.1908 Y0.5276
G1 X0.1829 Y0.5281
G1 X0.1431 Y0.5334
G1 X0.1352 Y0.5347
G1 X0.1109 Y0.5406
G1 X0.0557 Y0.556
G1 X0.0318 Y0.5611
G1 X0. Y0.5651
G1 X-0.1193 Y0.5715
G1 X-0.1232 Y0.5709
G1 X-0.1292 Y0.5688
G1 X-0.1354 Y0.5645
G1 X-0.1389 Y0.5605
G1 X-0.1412 Y0.5565
G1 X-0.1431 Y0.5508
G1 X-0.1464 Y0.5393
G1 X-0.1491 Y0.5327
G1 X-0.1511 Y0.528
G1 X-0.1515 Y0.5259 Z-0.0522 F25.
G1 X-0.1519 Y0.5239 Z-0.0515
G1 X-0.1522 Y0.5221 Z-0.0503
G1 X-0.1525 Y0.5206 Z-0.0488
G1 X-0.1527 Y0.5194 Z-0.0469
G1 Y0.5191 Z-0.0462
G1 Y0.5186 Z-0.0445
G1 Y0.5184 Z-0.0427
G0 Z0.1975
G0 X0.0634 Y0.0641
G0 Z-0.1025
G3 X0.1166 Y-0.1282 Z-0.1134 I0.0266 J-0.0961 F13.333
G3 X0.0634 Y0.0641 Z-0.1244 I-0.0266 J0.0961
G3 X0.1166 Y-0.1282 Z-0.1353 I0.0266 J-0.0961
G3 X0.0634 Y0.0641 Z-0.1463 I-0.0266 J0.0961
G3 X0.1166 Y-0.1282 Z-0.1572 I0.0266 J-0.0961
G3 X0.0634 Y0.0641 Z-0.1681 I-0.0266 J0.0961
G3 X0.1166 Y-0.1282 Z-0.1791 I0.0266 J-0.0961
G3 X0.0634 Y0.0641 Z-0.19 I-0.0266 J0.0961
G3 X0.1166 Y-0.1282 Z-0.201 I0.0266 J-0.0961
G3 X0.0634 Y0.0641 Z-0.2119 I-0.0266 J0.0961
G3 X0.1166 Y-0.1282 Z-0.2229 I0.0266 J-0.0961
G3 X0.0634 Y0.0641 Z-0.2338 I-0.0266 J0.0961
G3 X0.1166 Y-0.1282 Z-0.2447 I0.0266 J-0.0961
G3 X0.0634 Y0.0641 Z-0.2557 I-0.0266 J0.0961
G3 X0.1166 Y-0.1282 Z-0.2666 I0.0266 J-0.0961
G3 X0.0634 Y0.0641 Z-0.2776 I-0.0266 J0.0961
G3 X0.1166 Y-0.1282 Z-0.2885 I0.0266 J-0.0961
G3 X0.0634 Y0.0641 Z-0.2995 I-0.0266 J0.0961
G3 X0.1166 Y-0.1282 Z-0.3104 I0.0266 J-0.0961
G3 X0.0634 Y0.0641 Z-0.3213 I-0.0266 J0.0961
G3 X0.1166 Y-0.1282 Z-0.3323 I0.0266 J-0.0961
G3 X0.0634 Y0.0641 Z-0.3432 I-0.0266 J0.0961
G3 X0.1166 Y-0.1282 Z-0.3542 I0.0266 J-0.0961
G3 X0.0634 Y0.0641 Z-0.3651 I-0.0266 J0.0961
G3 X0.1166 Y-0.1282 Z-0.3761 I0.0266 J-0.0961
G3 X0.0634 Y0.0641 Z-0.387 I-0.0266 J0.0961
G3 X0.1166 Y-0.1282 Z-0.3979 I0.0266 J-0.0961
G3 X0.1898 Y-0.032 Z-0.4025 I-0.0266 J0.0961
G3 X-0.0097 I-0.0998 J0.
G3 X0.1898 I0.0998 J0.
G1 X0.19 Y-0.0233 F20.
G1 X0.1999 Y0.0159
G1 X0.2006 Y0.0213
G1 X0.2009 Y0.0267
G1 X0.2007 Y0.0323
G1 X0.2001 Y0.0383
G1 X0.1988 Y0.0446
G1 X0.197 Y0.0512
G1 X0.1945 Y0.0579
G1 X0.1914 Y0.0648
G1 X0.1875 Y0.0717
G1 X0.1828 Y0.0786
G1 X0.1774 Y0.0853
G1 X0.1713 Y0.0919
G1 X0.1643 Y0.0981
G1 X0.1567 Y0.104
G1 X0.1484 Y0.1094
G1 X0.1394 Y0.1143
G1 X0.1298 Y0.1185
G1 X0.1196 Y0.122
G1 X0.109 Y0.1248
G1 X0.0979 Y0.1267
G1 X0.0865 Y0.1278
G1 X0.0749 Y0.1279
G1 X0.0631 Y0.1271
G1 X0.0513 Y0.1254
G1 X0.0395 Y0.1226
G1 X0.0278 Y0.1189
G1 X0.0164 Y0.1142
G1 X0.0052 Y0.1086
G1 X-0.0055 Y0.102
G1 X-0.0158 Y0.0945
G1 X-0.0255 Y0.0862
G1 X-0.0345 Y0.077
G1 X-0.0428 Y0.0672
G1 X-0.0504 Y0.0566
G1 X-0.0571 Y0.0454
G1 X-0.0629 Y0.0337
G1 X-0.0677 Y0.0215
G1 X-0.0716 Y0.0089
G1 X-0.0744 Y-0.004
G1 X-0.0762 Y-0.0171
G1 X-0.077 Y-0.0304
G1 X-0.0767 Y-0.0436
G1 X-0.0753 Y-0.0569
G1 X-0.0729 Y-0.07
G1 X-0.0694 Y-0.0829
G1 X-0.0649 Y-0.0954
G1 X-0.0594 Y-0.1076
G1 X-0.0529 Y-0.1193
G1 X-0.0455 Y-0.1305
G1 X-0.0372 Y-0.141
G1 X-0.0281 Y-0.1509
G1 X-0.0182 Y-0.16
G1 X-0.0076 Y-0.1682
G1 X0.0036 Y-0.1756
G1 X0.0153 Y-0.1821
G1 X0.0276 Y-0.1876
G1 X0.0403 Y-0.1921
G1 X0.0533 Y-0.1956
G1 X0.0665 Y-0.1981
G1 X0.0799 Y-0.1994
G1 X0.0933 Y-0.1997
G1 X0.1068 Y-0.1989
G1 X0.1201 Y-0.197
G1 X0.1332 Y-0.1941
G1 X0.1461 Y-0.1901
G1 X0.1586 Y-0.1851
G1 X0.1707 Y-0.1791
G1 X0.1822 Y-0.1722
G1 X0.1932 Y-0.1643
G1 X0.2035 Y-0.1556
G1 X0.213 Y-0.1461
G1 X0.2218 Y-0.1359
G1 X0.2321 Y-0.1216
G1 X0.2464 Y-0.0982
G1 X0.2566 Y-0.078
G1 X0.2639 Y-0.0601
G1 X0.2693 Y-0.043
G1 X0.273 Y-0.0267
G1 X0.2754 Y-0.0109
G1 X0.2764 Y0.0046
G1 X0.2761 Y0.0199
G1 X0.2747 Y0.0348
G1 X0.2721 Y0.0496
G1 X0.2683 Y0.064
G1 X0.2634 Y0.0781
G1 X0.2573 Y0.0918
G1 X0.2501 Y0.1051
G1 X0.2418 Y0.1178
G1 X0.2324 Y0.1299
G1 X0.222 Y0.1414
G1 X0.2105 Y0.1521
G1 X0.1981 Y0.162
G1 X0.1848 Y0.171
G1 X0.1706 Y0.1789
G1 X0.1557 Y0.1858
G1 X0.1401 Y0.1915
G1 X0.1239 Y0.196
G1 X0.1072 Y0.1992
G1 X0.0901 Y0.2011
G1 X0.0728 Y0.2016
G1 X0.0553 Y0.2007
G1 X0.0377 Y0.1984
G1 X0.0202 Y0.1946
G1 X0.003 Y0.1894
G1 X-0.014 Y0.1828
G1 X-0.0304 Y0.1748
G1 X-0.0463 Y0.1654
G1 X-0.0615 Y0.1547
G1 X-0.0759 Y0.1428
G1 X-0.0893 Y0.1297
G1 X-0.1017 Y0.1154
G1 X-0.1129 Y0.1002
G1 X-0.123 Y0.084
G1 X-0.1317 Y0.0671
G1 X-0.1391 Y0.0494
G1 X-0.145 Y0.0311
G1 X-0.1495 Y0.0124
G1 X-0.1524 Y-0.0067
G1 X-0.1538 Y-0.026
G1 X-0.1537 Y-0.0453
G1 X-0.152 Y-0.0647
G1 X-0.1488 Y-0.0839
G1 X-0.144 Y-0.1027
G1 X-0.1377 Y-0.1212
G1 X-0.13 Y-0.1391
G1 X-0.1208 Y-0.1564
G1 X-0.1103 Y-0.1728
G1 X-0.0984 Y-0.1884
G1 X-0.0853 Y-0.203
G1 X-0.0711 Y-0.2165
G1 X-0.0559 Y-0.2289
G1 X-0.0397 Y-0.24
G1 X-0.0251 Y-0.2483
G1 X-0.0074 Y-0.2569
G1 X0.0108 Y-0.264
G1 X0.0296 Y-0.2696
G1 X0.0488 Y-0.2737
G1 X0.0683 Y-0.2763
G1 X0.0879 Y-0.2773
G1 X0.1076 Y-0.2767
G1 X0.1271 Y-0.2745
G1 X0.1464 Y-0.2708
G1 X0.1654 Y-0.2655
G1 X0.1839 Y-0.2587
G1 X0.2017 Y-0.2505
G1 X0.2192 Y-0.2407
G1 X0.2362 Y-0.2292
G1 X0.2542 Y-0.2149
G1 X0.2718 Y-0.1984
G1 X0.2882 Y-0.1802
G1 X0.3032 Y-0.1608
G1 X0.3164 Y-0.1405
G1 X0.3278 Y-0.1194
G1 X0.3374 Y-0.0978
G1 X0.345 Y-0.0759
G1 X0.3508 Y-0.0537
G1 X0.3548 Y-0.0314
G1 X0.3569 Y-0.0091
G1 X0.3572 Y0.0131
G1 X0.3557 Y0.0351
G1 X0.3525 Y0.0568
G1 X0.3476 Y0.0782
G1 X0.341 Y0.099
G1 X0.3327 Y0.1192
G1 X0.3228 Y0.1388
G1 X0.3114 Y0.1576
G1 X0.2984 Y0.1754
G1 X0.2839 Y0.1923
G1 X0.2681 Y0.208
G1 X0.2509 Y0.2225
G1 X0.2325 Y0.2357
G1 X0.213 Y0.2474
G1 X0.1924 Y0.2576
G1 X0.1709 Y0.2662
G1 X0.1487 Y0.273
G1 X0.1258 Y0.2781
G1 X0.1023 Y0.2814
G1 X0.0785 Y0.2828
G1 X0.0545 Y0.2823
G1 X0.0305 Y0.2798
G1 X0.0065 Y0.2754
G1 X-0.0171 Y0.269
G1 X-0.0403 Y0.2607
G1 X-0.0629 Y0.2505
G1 X-0.0847 Y0.2385
G1 X-0.1056 Y0.2247
G1 X-0.1254 Y0.2092
G1 X-0.1439 Y0.1921
G1 X-0.1612 Y0.1734
G1 X-0.1769 Y0.1534
G1 X-0.191 Y0.1321
G1 X-0.2034 Y0.1096
G1 X-0.2139 Y0.0862
G1 X-0.2226 Y0.0619
G1 X-0.2293 Y0.037
G1 X-0.2341 Y0.0115
G1 X-0.2367 Y-0.0143
G1 X-0.2373 Y-0.0403
G1 X-0.2358 Y-0.0663
G1 X-0.2322 Y-0.0922
G1 X-0.2265 Y-0.1177
G1 X-0.2188 Y-0.1427
G1 X-0.2091 Y-0.167
G1 X-0.1975 Y-0.1905
G1 X-0.184 Y-0.213
G1 X-0.1687 Y-0.2343
G1 X-0.1519 Y-0.2543
G1 X-0.1333 Y-0.273
G1 X-0.1133 Y-0.2902
G1 X-0.092 Y-0.3057
G1 X-0.0695 Y-0.3195
G1 X-0.0459 Y-0.3314
G1 X-0.0215 Y-0.3414
G1 X0.0036 Y-0.3493
G1 X0.0293 Y-0.3553
G1 X0.0554 Y-0.3592
G1 X0.0729 Y-0.3603
G1 X0.0992 Y-0.3607
G1 X0.1255 Y-0.3589
G1 X0.1515 Y-0.3551
G1 X0.1773 Y-0.3491
G1 X0.2026 Y-0.3411
G1 X0.2279 Y-0.3308
G1 X0.253 Y-0.3181
G1 X0.2776 Y-0.303
G1 X0.3014 Y-0.2857
G1 X0.324 Y-0.2663
G1 X0.3451 Y-0.245
G1 X0.3646 Y-0.222
G1 X0.3821 Y-0.1975
G1 X0.3976 Y-0.1717
G1 X0.4109 Y-0.1448
G1 X0.4219 Y-0.1172
G1 X0.4306 Y-0.0888
G1 X0.4371 Y-0.0601
G1 X0.4411 Y-0.031
G1 X0.4428 Y-0.0018
G1 X0.4422 Y0.0273
G1 X0.4392 Y0.0561
G1 X0.4339 Y0.0846
G1 X0.4264 Y0.1125
G1 X0.4167 Y0.1398
G1 X0.4047 Y0.1662
G1 X0.3907 Y0.1916
G1 X0.3747 Y0.2158
G1 X0.3567 Y0.2388
G1 X0.3368 Y0.2603
G1 X0.3152 Y0.2802
G1 X0.292 Y0.2984
G1 X0.2673 Y0.3148
G1 X0.2411 Y0.3292
G1 X0.2138 Y0.3416
G1 X0.1854 Y0.3517
G1 X0.1561 Y0.3596
G1 X0.1261 Y0.3651
G1 X0.0956 Y0.3683
G1 X0.0648 Y0.369
G1 X0.0338 Y0.3672
G1 X0.003 Y0.3629
G1 X-0.0276 Y0.3561
G1 X-0.0576 Y0.3468
G1 X-0.087 Y0.3351
G1 X-0.1154 Y0.321
G1 X-0.1428 Y0.3046
G1 X-0.1688 Y0.286
G1 X-0.1933 Y0.2653
G1 X-0.2162 Y0.2426
G1 X-0.2373 Y0.218
G1 X-0.2564 Y0.1918
G1 X-0.2733 Y0.164
G1 X-0.2881 Y0.1349
G1 X-0.3004 Y0.1046
G1 X-0.3104 Y0.0734
G1 X-0.3178 Y0.0414
G1 X-0.3226 Y0.0088
G1 X-0.3248 Y-0.0241
G1 X-0.3243 Y-0.0571
G1 X-0.3212 Y-0.09
G1 X-0.3154 Y-0.1226
G1 X-0.3071 Y-0.1547
G1 X-0.2962 Y-0.186
G1 X-0.2827 Y-0.2164
G1 X-0.2744 Y-0.2318
G1 X-0.2574 Y-0.2603
G1 X-0.2382 Y-0.2874
G1 X-0.2168 Y-0.3128
G1 X-0.1935 Y-0.3366
G1 X-0.1682 Y-0.3583
G1 X-0.1413 Y-0.378
G1 X-0.1129 Y-0.3955
G1 X-0.0832 Y-0.4106
G1 X-0.0523 Y-0.4233
G1 X-0.021 Y-0.4333
G1 X0.0117 Y-0.441
G1 X0.0448 Y-0.446
G1 X0.0782 Y-0.4483
G1 X0.1117 Y-0.4479
G1 X0.1451 Y-0.4449
G1 X0.1784 Y-0.4391
G1 X0.2114 Y-0.4306
G1 X0.2441 Y-0.4193
G1 X0.2762 Y-0.4052
G1 X0.3071 Y-0.3887
G1 X0.3365 Y-0.3697
G1 X0.3644 Y-0.3485
G1 X0.3906 Y-0.3253
G1 X0.4149 Y-0.3001
G1 X0.4373 Y-0.2731
G1 X0.4575 Y-0.2445
G1 X0.4755 Y-0.2144
G1 X0.4912 Y-0.1831
G1 X0.5044 Y-0.1507
G1 X0.5151 Y-0.1173
G1 X0.5232 Y-0.0833
G1 X0.5287 Y-0.0487
G1 X0.5314 Y-0.0138
G1 X0.5315 Y0.0213
G1 X0.5288 Y0.0562
G1 X0.5234 Y0.0908
G1 X0.5153 Y0.1249
G1 X0.5046 Y0.1582
G1 X0.4914 Y0.1906
G1 X0.4756 Y0.2219
G1 X0.4575 Y0.2519
G1 X0.4371 Y0.2804
G1 X0.4146 Y0.3072
G1 X0.3901 Y0.3322
G1 X0.3637 Y0.3552
G1 X0.3357 Y0.3762
G1 X0.3061 Y0.395
G1 X0.2752 Y0.4114
G1 X0.2431 Y0.4255
G1 X0.2101 Y0.4372
G1 X0.1763 Y0.4463
G1 X0.1419 Y0.4529
G1 X0.1071 Y0.4569
G1 X0.0721 Y0.4583
G1 X0.0371 Y0.457
G1 X0.0023 Y0.4532
G1 X-0.0322 Y0.4468
G1 X-0.0661 Y0.4379
G1 X-0.0992 Y0.4266
G1 X-0.1315 Y0.4129
G1 X-0.1626 Y0.397
G1 X-0.1926 Y0.3789
G1 X-0.2212 Y0.3586
G1 X-0.2482 Y0.3364
G1 X-0.2736 Y0.3122
G1 X-0.2971 Y0.2863
G1 X-0.3188 Y0.2587
G1 X-0.3384 Y0.2297
G1 X-0.356 Y0.1994
G1 X-0.3714 Y0.168
G1 X-0.3846 Y0.1355
G1 X-0.3955 Y0.1022
G1 X-0.4039 Y0.0682
G1 X-0.4099 Y0.0337
G1 X-0.4134 Y-0.0011
G1 X-0.4145 Y-0.0361
G1 X-0.4133 Y-0.0711
G1 X-0.4096 Y-0.1059
G1 X-0.4035 Y-0.1404
G1 X-0.3949 Y-0.1744
G1 X-0.3839 Y-0.2076
G1 X-0.3707 Y-0.2401
G1 X-0.3553 Y-0.2715
G1 X-0.3377 Y-0.3018
G1 X-0.318 Y-0.3308
G1 X-0.2963 Y-0.3583
G1 X-0.2729 Y-0.3843
G1 X-0.2477 Y-0.4086
G1 X-0.2209 Y-0.4312
G1 X-0.1926 Y-0.4518
G1 X-0.1629 Y-0.4704
G1 X-0.132 Y-0.4869
G1 X-0.1 Y-0.5011
G1 X-0.0671 Y-0.5131
G1 X-0.0335 Y-0.5229
G1 X0.0008 Y-0.5303
G1 X0.0354 Y-0.5354
G1 X0.0704 Y-0.538
G1 X0.1054 Y-0.5381
G1 X0.1403 Y-0.5358
G1 X0.175 Y-0.5312
G1 X0.2094 Y-0.5242
G1 X0.2431 Y-0.515
G1 X0.2762 Y-0.5035
G1 X0.3084 Y-0.4897
G1 X0.3397 Y-0.4738
G1 X0.3698 Y-0.456
G1 X0.3987 Y-0.4362
G1 X0.4263 Y-0.4146
G1 X0.4524 Y-0.3913
G1 X0.477 Y-0.3664
G1 X0.4999 Y-0.3398
G1 X0.521 Y-0.3119
G1 X0.5404 Y-0.2828
G1 X0.5579 Y-0.2524
G1 X0.5735 Y-0.221
G1 X0.5869 Y-0.1887
G1 X0.5982 Y-0.1556
G1 X0.6074 Y-0.1217
G1 X0.6144 Y-0.0874
G1 X0.6193 Y-0.0528
G1 X0.6219 Y-0.0178
G1 X0.6221 Y0.0172
G1 X0.6201 Y0.0522
G1 X0.6158 Y0.0869
G1 X0.6093 Y0.1213
G1 X0.6007 Y0.1553
G1 X0.5899 Y0.1886
G1 X0.5768 Y0.2211
G1 X0.5617 Y0.2527
G1 X0.5446 Y0.2832
G1 X0.5256 Y0.3126
G1 X0.5047 Y0.3408
G1 X0.4821 Y0.3675
G1 X0.4578 Y0.3927
G1 X0.4318 Y0.4163
G1 X0.4045 Y0.4381
G1 X0.3758 Y0.4582
G1 X0.3459 Y0.4765
G1 X0.315 Y0.4929
G1 X0.283 Y0.5072
G1 X0.2607 Y0.5155
G1 X0.2554 Y0.5171
G1 X0.2499 Y0.5179
G1 X0.2444
G1 X0.2147 Y0.5157
G1 X0.1908 Y0.5153
G1 X0.1829 Y0.5158
G1 X0.1352 Y0.5223
G1 X0.1113 Y0.5278
G1 X0.0942 Y0.5317
G1 X0.0682 Y0.5359
G1 X0.0396 Y0.5381
G1 X0.0074 Y0.538
G1 X-0.0275 Y0.5351
G1 X-0.062 Y0.5294
G1 X-0.0961 Y0.5211
G1 X-0.1136 Y0.5156
G1 X-0.1228 Y0.5112
G1 X-0.1306 Y0.5045
G1 X-0.1363 Y0.496
G3 X-0.125 Y0.4804 I0.0101 J-0.0045 F25.
G1 X0.1091 Y0.5063
G3 X0.1182 Y0.5213 I-0.0012 J0.011
G1 X0.1171 Y0.5235 F15.
G1 X0.1155 Y0.5254
G1 X0.1135 Y0.5268
G1 X0.1113 Y0.5278
G1 X0.0557 Y0.5433 F20.
G1 X0.0318 Y0.5487
G1 X0. Y0.5529
G1 X-0.0954 Y0.5581
G1 X-0.0994 Y0.558
G1 X-0.1034 Y0.5573
G1 X-0.1085 Y0.5553
G1 X-0.1113 Y0.5536
G1 X-0.114 Y0.5515
G1 X-0.1166 Y0.5486
G1 X-0.1203 Y0.5427
G1 X-0.1211 Y0.5406
G1 X-0.1239 Y0.5283
G1 X-0.1267 Y0.5181
G1 X-0.1307 Y0.5075
G1 X-0.1378 Y0.4929
G1 X-0.1431 Y0.4848
G1 X-0.1511 Y0.4738
G1 X-0.155 Y0.4691
G1 X-0.167 Y0.4578
G1 X-0.1749 Y0.4516
G1 X-0.1849 Y0.4452
G1 X-0.2011 Y0.4373
G1 X-0.2067 Y0.435
G1 X-0.2171 Y0.432
G1 X-0.223 Y0.4304
G1 X-0.2414 Y0.4242
G1 X-0.26 Y0.4161
G1 X-0.2813 Y0.4049
G1 X-0.3037 Y0.3906
G1 X-0.3266 Y0.3733
G1 X-0.3508 Y0.3517
G1 X-0.375 Y0.3264
G1 X-0.3972 Y0.2993
G1 X-0.4173 Y0.2706
G1 X-0.4354 Y0.2406
G1 X-0.4514 Y0.2095
G1 X-0.4653 Y0.1773
G1 X-0.4772 Y0.1444
G1 X-0.487 Y0.1108
G1 X-0.4948 Y0.0766
G1 X-0.5005 Y0.042
G1 X-0.5041 Y0.0072
G1 X-0.5057 Y-0.0278
G1 X-0.5051 Y-0.0628
G1 X-0.5024 Y-0.0977
G1 X-0.4977 Y-0.1324
G1 X-0.4909 Y-0.1668
G1 X-0.4822 Y-0.2007
G1 X-0.4714 Y-0.234
G1 X-0.4587 Y-0.2666
G1 X-0.444 Y-0.2984
G1 X-0.4274 Y-0.3293
G1 X-0.4092 Y-0.3592
G1 X-0.3892 Y-0.388
G1 X-0.3676 Y-0.4155
G1 X-0.3443 Y-0.4417
G1 X-0.3196 Y-0.4665
G1 X-0.2934 Y-0.4898
G1 X-0.266 Y-0.5115
G1 X-0.2373 Y-0.5316
G1 X-0.2075 Y-0.55
G1 X-0.1766 Y-0.5666
G1 X-0.1448 Y-0.5813
G1 X-0.1122 Y-0.5941
G1 X-0.079 Y-0.605
G1 X-0.0451 Y-0.614
G1 X-0.0108 Y-0.621
G1 X0.0239 Y-0.626
G1 X0.0361 Y-0.627
G1 X0.0446 Y-0.6267
G1 X0.0529 Y-0.6246
G1 X0.0605 Y-0.6206
G1 X0.0855 Y-0.6042
G1 X0.1015 Y-0.5963
G1 X0.1193 Y-0.5901
G1 X0.1431 Y-0.5826
G1 X0.159 Y-0.5786
G1 X0.167 Y-0.5773
G1 X0.1829 Y-0.576
G1 X0.1988 Y-0.5757
G1 X0.2147 Y-0.5761
G1 X0.2226 Y-0.5768
G1 X0.2401 Y-0.5776
G1 X0.2582
G1 X0.2742 Y-0.5763
G1 X0.2829 Y-0.5745
G1 X0.2909 Y-0.5709
G1 X0.2979 Y-0.5655
G3 X0.2885 Y-0.5468 I-0.008 J0.0076 F25.
G1 X0.2227 Y-0.5549
G3 X0.2146 Y-0.5717 I0.0013 J-0.011
G1 X0.2161 Y-0.5736 F15.
G1 X0.218 Y-0.5752
G1 X0.2202 Y-0.5762
G1 X0.2226 Y-0.5768
G1 X0.2306 Y-0.5776 F20.
G1 X0.2385 Y-0.5789
G1 X0.2465 Y-0.5808
G1 X0.2624 Y-0.5857
G1 X0.2663 Y-0.586
G1 X0.2703 Y-0.5858
G1 X0.2743 Y-0.5848
G1 X0.2783 Y-0.5832
G1 X0.2825 Y-0.5804
G1 X0.3339 Y-0.5306
G1 X0.3419 Y-0.5241
G1 X0.3578 Y-0.5137
G1 X0.4293 Y-0.4706
G1 X0.4373 Y-0.4666
G1 X0.4611 Y-0.4571
G1 X0.4761 Y-0.4509
G1 X0.4927 Y-0.4427
G1 X0.5118 Y-0.4311
G1 X0.5317 Y-0.4168
G1 X0.553 Y-0.3988
G1 X0.5755 Y-0.3764
G1 X0.5983 Y-0.3498
G1 X0.6188 Y-0.3214
G1 X0.6373 Y-0.2917
G1 X0.6537 Y-0.2607
G1 X0.6681 Y-0.2288
G1 X0.6805 Y-0.196
G1 X0.6909 Y-0.1626
G1 X0.6994 Y-0.1286
G1 X0.7059 Y-0.0942
G1 X0.7106 Y-0.0595
G1 X0.7132 Y-0.0245
G1 X0.7139 Y0.0105
G1 X0.7125 Y0.0455
G1 X0.7093 Y0.0803
G1 X0.7041 Y0.115
G1 X0.6971 Y0.1493
G1 X0.6881 Y0.1832
G1 X0.6773 Y0.2165
G1 X0.6646 Y0.2491
G1 X0.6501 Y0.281
G1 X0.6339 Y0.312
G1 X0.616 Y0.3422
G1 X0.5966 Y0.3713
G1 X0.5755 Y0.3993
G1 X0.5529 Y0.426
G1 X0.5289 Y0.4515
G1 X0.5035 Y0.4756
G1 X0.4768 Y0.4982
G1 X0.4462 Y0.5213
G1 X0.4395 Y0.5249
G1 X0.4322 Y0.5272
G1 X0.4246 Y0.5279
G1 X0.3896 Y0.5277
G1 X0.3657 Y0.5268
G1 X0.2444 Y0.5179
G1 X0.2414 Y0.5173 F25.
G1 X0.2384 Y0.5162
G2 X0.1598 Y0.4849 I-0.3979 J0.8848
G1 X0.1561 Y0.4839
G1 X-0.124 Y0.4318
G1 X-0.1277 Y0.4314
G2 X-0.2073 Y0.432 I-0.0318 J0.9696
G1 X-0.2124 Y0.4323 F15.
G1 X-0.2147
G1 X-0.2171 Y0.432
G1 X-0.2315 Y0.4293 F20.
G1 X-0.2385 Y0.4282
G1 X-0.2544 Y0.428
G1 X-0.2624 Y0.4281
G1 X-0.2822 Y0.4317
G1 X-0.2945 Y0.4331
G1 X-0.3036 Y0.4333
G1 X-0.3142 Y0.4326
G1 X-0.3251 Y0.4311
G1 X-0.338 Y0.4282
G1 X-0.352 Y0.4239
G1 X-0.367 Y0.4179
G1 X-0.3838 Y0.4095
G1 X-0.4016 Y0.3989
G1 X-0.4205 Y0.3853
G1 X-0.4412 Y0.3678
G1 X-0.4618 Y0.3474
G1 X-0.4829 Y0.3228
G1 X-0.5035 Y0.2944
G1 X-0.5218 Y0.2646
G1 X-0.538 Y0.2335
G1 X-0.5522 Y0.2015
G1 X-0.5644 Y0.1687
G1 X-0.5747 Y0.1352
G1 X-0.5831 Y0.1012
G1 X-0.5895 Y0.0668
G1 X-0.5941 Y0.032
G1 X-0.5968 Y-0.0029
G1 X-0.5977 Y-0.0379
G1 X-0.5968 Y-0.0729
G1 X-0.5941 Y-0.1078
G1 X-0.5896 Y-0.1426
G1 X-0.5832 Y-0.177
G1 X-0.5751 Y-0.2111
G1 X-0.5652 Y-0.2447
G1 X-0.5536 Y-0.2777
G1 X-0.5403 Y-0.3101
G1 X-0.5255 Y-0.3419
G1 X-0.5091 Y-0.3728
G1 X-0.491 Y-0.4028
G1 X-0.4715 Y-0.4319
G1 X-0.4505 Y-0.4599
G1 X-0.4281 Y-0.4868
G1 X-0.4209 Y-0.4946
G1 X-0.4148 Y-0.5
G1 X-0.4077 Y-0.5039
G1 X-0.4 Y-0.5063
G1 X-0.392 Y-0.507
G1 X-0.3737
G1 X-0.3498 Y-0.5112
G1 X-0.2703 Y-0.5344
G1 X-0.2624 Y-0.5372
G1 X-0.2465 Y-0.5446
G1 X-0.1749 Y-0.5831
G1 X-0.1551 Y-0.5963
G1 X-0.1329 Y-0.6122
G1 X-0.0716 Y-0.6578
G1 X-0.0668 Y-0.6614
G1 X-0.0549 Y-0.6695
G1 X-0.0428 Y-0.6764
G1 X-0.0385 Y-0.6784
G1 X-0.0292 Y-0.6814
G1 X-0.0195 Y-0.682
G1 X-0.0099 Y-0.68
G1 X-0.0011 Y-0.6757
G1 X0.0063 Y-0.6694
G3 X-0.0051 Y-0.6295 I-0.0192 J0.0161 F25.
G1 X-0.0463 Y-0.6161
G3 X-0.0771 Y-0.6497 I-0.0078 J-0.0238
G1 X-0.0756 Y-0.6526 F15.
G1 X-0.0737 Y-0.6553
G1 X-0.0716 Y-0.6578
G1 X-0.0477 Y-0.6823 F20.
G1 X-0.0431 Y-0.6872
G1 X-0.0378 Y-0.6908
G1 X-0.0318 Y-0.6929
G1 X-0.0278 Y-0.6934
G1 X-0.0239 Y-0.6933
G1 X-0.0206 Y-0.6927
G1 X-0.0159 Y-0.6911
G1 X-0.0119 Y-0.6887
G1 X-0.008 Y-0.6852
G1 X0.0239 Y-0.6501
G1 X0.0318 Y-0.6419
G1 X0.0398 Y-0.6351
G1 X0.0494 Y-0.6281
G1 X0.0605 Y-0.6206
G3 X0.0696 Y-0.5925 I-0.0146 J0.0203 F25.
G1 X-0.2639 Y0.4151
G3 X-0.2733 Y0.4277 I-0.0237 J-0.0079
G1 X-0.2761 Y0.4294 F15.
G1 X-0.2791 Y0.4307
G1 X-0.2822 Y0.4317
G1 X-0.2862 Y0.4326 F20.
G1 X-0.3101 Y0.4416
G1 X-0.3339 Y0.4523
G1 X-0.3444 Y0.4561
G1 X-0.352 Y0.4582
G1 X-0.3602 Y0.4597
G1 X-0.3698 Y0.4606
G1 X-0.3803 Y0.4608
G1 X-0.3919 Y0.4601
G1 X-0.405 Y0.4583
G1 X-0.4189 Y0.4552
G1 X-0.4345 Y0.4503
G1 X-0.4506 Y0.4438
G1 X-0.4685 Y0.4349
G1 X-0.4872 Y0.4237
G1 X-0.5068 Y0.4096
G1 X-0.5279 Y0.3917
G1 X-0.549 Y0.3707
G1 X-0.5705 Y0.3455
G1 X-0.591 Y0.3172
G1 X-0.6093 Y0.2873
G1 X-0.6256 Y0.2563
G1 X-0.64 Y0.2244
G1 X-0.6525 Y0.1917
G1 X-0.6631 Y0.1583
G1 X-0.672 Y0.1244
G1 X-0.6791 Y0.0901
G1 X-0.6844 Y0.0555
G1 X-0.6881 Y0.0207
G1 X-0.6901 Y-0.0143
G1 X-0.6904 Y-0.0493
G1 X-0.6892 Y-0.0843
G1 X-0.6864 Y-0.1192
G1 X-0.682 Y-0.154
G1 X-0.6759 Y-0.1885
G1 X-0.6682 Y-0.2226
G1 X-0.659 Y-0.2564
G1 X-0.6483 Y-0.2898
G1 X-0.6361 Y-0.3226
G1 X-0.6225 Y-0.3549
G1 X-0.6119 Y-0.3771
G1 X-0.6064 Y-0.3855
G1 X-0.599 Y-0.3922
G1 X-0.5901 Y-0.3967
G1 X-0.5804 Y-0.4006
G1 X-0.5709 Y-0.4055
G1 X-0.5565 Y-0.4152
G1 X-0.5486 Y-0.4214
G1 X-0.5168 Y-0.4513
G1 X-0.4991 Y-0.4691
G1 X-0.485 Y-0.4901
G1 X-0.4785 Y-0.503
G1 X-0.4755 Y-0.507
G1 X-0.4714 Y-0.5106
G1 X-0.4691 Y-0.512
G1 X-0.4651 Y-0.5137
G1 X-0.4611 Y-0.5147
G1 X-0.4571 Y-0.515
G1 X-0.4373 Y-0.5125
G1 X-0.3975 Y-0.5071
G1 X-0.392 Y-0.507
G1 X-0.3889 Y-0.5066 F25.
G2 X-0.1498 Y-0.4664 I0.5792 J-2.7172
G1 X-0.1482 Y-0.4663
G1 X0.2095 Y-0.4456
G1 X0.2111
G2 X0.4514 Y-0.4578 I-0.0208 J-2.7782
G1 X0.4532 Y-0.458 F15.
G1 X0.4558 Y-0.4581
G1 X0.4585 Y-0.4578
G1 X0.4611 Y-0.4571
G1 X0.5088 Y-0.4403 F20.
G1 X0.5327 Y-0.4349
G1 X0.5645 Y-0.4287
G1 X0.5724 Y-0.4274
G1 X0.5878 Y-0.4236
G1 X0.5997 Y-0.4194
G1 X0.6119 Y-0.414
G1 X0.6258 Y-0.4064
G1 X0.6404 Y-0.3968
G1 X0.6565 Y-0.3843
G1 X0.6729 Y-0.3693
G1 X0.6907 Y-0.3502
G1 X0.709 Y-0.327
G1 X0.7271 Y-0.3
G1 X0.7441 Y-0.2694
G1 X0.7588 Y-0.2376
G1 X0.7713 Y-0.2049
G1 X0.7818 Y-0.1715
G1 X0.7904 Y-0.1375
G1 X0.7971 Y-0.1031
G1 X0.8019 Y-0.0684
G1 X0.8049 Y-0.0335
G1 X0.8061 Y0.0015
G1 X0.8056 Y0.0365
G1 X0.8032 Y0.0714
G1 X0.7992 Y0.1062
G1 X0.7935 Y0.1408
G1 X0.7862 Y0.175
G1 X0.7772 Y0.2089
G1 X0.7665 Y0.2422
G1 X0.7542 Y0.275
G1 X0.7403 Y0.3072
G1 X0.7249 Y0.3386
G1 X0.708 Y0.3693
G1 X0.6897 Y0.3992
G1 X0.67 Y0.4281
G1 X0.6489 Y0.4561
G1 X0.6265 Y0.483
G1 X0.6045 Y0.5068
G1 X0.5972 Y0.513
G1 X0.5885 Y0.5171
G1 X0.5792 Y0.519
G1 X0.4691 Y0.527
G1 X0.4532 Y0.5278
G1 X0.4246 Y0.5279
G3 X0.4008 Y0.499 I0.0009 J-0.025 F25.
G1 X0.5445 Y-0.4065
G3 X0.5627 Y-0.4268 I0.0247 J0.0039
G1 X0.5659 Y-0.4274 F15.
G1 X0.5692 Y-0.4276
G1 X0.5724 Y-0.4274
G1 X0.5883 Y-0.4251 F20.
G1 X0.6281 Y-0.4242
G1 X0.6519 Y-0.4239
G1 X0.6656 Y-0.4227
G1 X0.675 Y-0.421
G1 X0.6862 Y-0.418
G1 X0.6973 Y-0.4141
G1 X0.7102 Y-0.4083
G1 X0.7236 Y-0.401
G1 X0.7381 Y-0.3914
G1 X0.7535 Y-0.3795
G1 X0.7698 Y-0.3646
G1 X0.7862 Y-0.3469
G1 X0.8036 Y-0.3248
G1 X0.8213 Y-0.2982
G1 X0.8383 Y-0.2676
G1 X0.8529 Y-0.2358
G1 X0.8652 Y-0.203
G1 X0.8753 Y-0.1695
G1 X0.8836 Y-0.1354
G1 X0.89 Y-0.101
G1 X0.8946 Y-0.0663
G1 X0.8975 Y-0.0314
G1 X0.8988 Y0.0036
G1 X0.8984 Y0.0387
G1 X0.8965 Y0.0736
G1 X0.893 Y0.1085
G1 X0.8879 Y0.1431
G1 X0.8814 Y0.1775
G1 X0.8733 Y0.2116
G1 X0.8637 Y0.2453
G1 X0.8527 Y0.2786
G1 X0.8403 Y0.3113
G1 X0.8266 Y0.3435
G1 X0.8114 Y0.3751
G1 X0.7949 Y0.406
G1 X0.7771 Y0.4361
G1 X0.758 Y0.4655
G1 X0.7376 Y0.494
G1 X0.7332 Y0.4996
G1 X0.7272 Y0.5057
G1 X0.7201 Y0.5102
G1 X0.712 Y0.5131
G1 X0.7036 Y0.5142
G1 X0.636 Y0.515
G1 X0.5792 Y0.519
G3 X0.5533 Y0.492 I-0.001 J-0.025 F25.
G1 X0.6276 Y-0.401
G3 X0.6424 Y-0.4218 I0.0249 J0.0021
G1 X0.6455 Y-0.4229 F15.
G1 X0.6487 Y-0.4236
G1 X0.6519 Y-0.4239
G1 X0.7235 Y-0.423 F20.
G1 X0.7314 Y-0.4227
G1 X0.7365 Y-0.4214
G1 X0.795 Y-0.4014
G1 X0.8125 Y-0.3939
G1 X0.825 Y-0.387
G1 X0.8391 Y-0.3776
G1 X0.853 Y-0.3668
G1 X0.8685 Y-0.3525
G1 X0.8839 Y-0.3358
G1 X0.9 Y-0.3153
G1 X0.9166 Y-0.2902
G1 X0.9331 Y-0.2604
G1 X0.9475 Y-0.2285
G1 X0.9596 Y-0.1956
G1 X0.9695 Y-0.162
G1 X0.9774 Y-0.1279
G1 X0.9835 Y-0.0934
G1 X0.9879 Y-0.0587
G1 X0.9906 Y-0.0238
G1 X0.9918 Y0.0112
G1 X0.9914 Y0.0463
G1 X0.9896 Y0.0812
G1 X0.9864 Y0.1161
G1 X0.9817 Y0.1508
G1 X0.9756 Y0.1853
G1 X0.9681 Y0.2195
G1 X0.9593 Y0.2534
G1 X0.9492 Y0.287
G1 X0.9378 Y0.3201
G1 X0.9251 Y0.3527
G1 X0.9111 Y0.3848
G1 X0.896 Y0.4164
G1 X0.8796 Y0.4474
G1 X0.8621 Y0.4777
G1 X0.8501 Y0.4959
G1 X0.844 Y0.5032
G1 X0.8362 Y0.5087
G1 X0.8274 Y0.5121
G1 X0.8179 Y0.5132
G1 X0.7632 Y0.5135
G1 X0.7036 Y0.5142
G3 X0.6793 Y0.4868 I0.0006 J-0.025 F25.
G1 X0.7629 Y-0.3799
G3 X0.7853 Y-0.4024 I0.0249 J0.0024
G1 X0.7886 Y-0.4025 F15.
G1 X0.7919 Y-0.4022
G1 X0.795 Y-0.4014
G1 X0.9063 Y-0.3635 F20.
G1 X0.9179 Y-0.3589
G1 X0.9286 Y-0.3537
G1 X0.9394 Y-0.3473
G1 X0.9519 Y-0.3384
G1 X0.9643 Y-0.3281
G1 X0.978 Y-0.3145
G1 X0.9916 Y-0.2988
G1 X1.0063 Y-0.2789
G1 X1.0209 Y-0.2552
G1 X1.0352 Y-0.2271
G1 X1.0486 Y-0.1947
G1 X1.0595 Y-0.1614
G1 X1.0681 Y-0.1275
G1 X1.0748 Y-0.0931
G1 X1.0797 Y-0.0584
G1 X1.0829 Y-0.0235
G1 X1.0846 Y0.0115
G1 X1.0847 Y0.0465
G1 X1.0835 Y0.0815
G1 X1.0808 Y0.1164
G1 X1.0767 Y0.1512
G1 X1.0713 Y0.1858
G1 X1.0647 Y0.2202
G1 X1.0568 Y0.2543
G1 X1.0476 Y0.2881
G1 X1.0373 Y0.3216
G1 X1.0258 Y0.3547
G1 X1.0131 Y0.3873
G1 X0.9994 Y0.4195
G1 X0.9845 Y0.4512
G1 X0.9683 Y0.4822
G1 X0.9561 Y0.5015
G1 X0.9534 Y0.5051
G1 X0.9468 Y0.512
G1 X0.9386 Y0.517
G1 X0.9295 Y0.5199
G1 X0.9199 Y0.5204
G1 X0.8189 Y0.5133
G1 X0.8179 Y0.5132
G3 X0.794 Y0.4859 I0.001 J-0.025 F25.
G1 X0.8742 Y-0.342
G3 X0.8966 Y-0.3645 I0.0249 J0.0024
G1 X0.8999 Y-0.3646 F15.
G1 X0.9032 Y-0.3643
G1 X0.9063 Y-0.3635
G1 X1.0097 Y-0.3283 F20.
G1 X1.0211 Y-0.3238
G1 X1.0312 Y-0.3189
G1 X1.0413 Y-0.3129
G1 X1.0527 Y-0.3048
G1 X1.0645 Y-0.295
G1 X1.077 Y-0.2828
G1 X1.0899 Y-0.2679
G1 X1.1035 Y-0.2495
G1 X1.1167 Y-0.2281
G1 X1.1302 Y-0.2018
G1 X1.1434 Y-0.1701
G1 X1.1542 Y-0.1367
G1 X1.1627 Y-0.1028
G1 X1.1691 Y-0.0683
G1 X1.1736 Y-0.0336
G1 X1.1764 Y0.0013
G1 X1.1776 Y0.0363
G1 X1.1773 Y0.0714
G1 X1.1757 Y0.1063
G1 X1.1726 Y0.1412
G1 X1.1683 Y0.176
G1 X1.1628 Y0.2106
G1 X1.1561 Y0.2449
G1 X1.1482 Y0.2791
G1 X1.1392 Y0.3129
G1 X1.129 Y0.3464
G1 X1.1178 Y0.3796
G1 X1.1055 Y0.4124
G1 X1.0921 Y0.4448
G1 X1.0773 Y0.4765
G1 X1.0647 Y0.4991
G1 X1.0537 Y0.5157
G1 X1.0466 Y0.5226
G1 X1.0379 Y0.5275
G1 X1.0282 Y0.53
G1 X1.0183 Y0.5299
G1 X0.9779 Y0.5246
G1 X0.9199 Y0.5204
G3 X0.8977 Y0.493 I0.0027 J-0.0249 F25.
G1 X0.9776 Y-0.3069
G3 X1. Y-0.3293 I0.0249 J0.0025
G1 X1.0033 Y-0.3294 F15.
G1 X1.0065 Y-0.3291
G1 X1.0097 Y-0.3283
G1 X1.0495 Y-0.3147 F20.
G1 X1.0753 Y-0.3033
G1 X1.0793 Y-0.3006
G1 X1.0832 Y-0.2965
G1 X1.1061 Y-0.2624
G1 X1.1131 Y-0.2537
G1 X1.1369 Y-0.2293
G1 X1.1534 Y-0.2147
G1 X1.1608 Y-0.2091
G1 X1.1643 Y-0.2067
G1 X1.1676 Y-0.2046
G1 X1.1762 Y-0.1979
G1 X1.185 Y-0.1899
G1 X1.1945 Y-0.1798
G1 X1.2045 Y-0.1673
G1 X1.2147 Y-0.1521
G1 X1.2251 Y-0.1337
G1 X1.2356 Y-0.1108
G1 X1.2455 Y-0.0839
G1 X1.2546 Y-0.051
G1 X1.2613 Y-0.0166
G1 X1.2655 Y0.0181
G1 X1.2678 Y0.0531
G1 X1.2682 Y0.0881
G1 X1.2671 Y0.1231
G1 X1.2645 Y0.1581
G1 X1.2606 Y0.1929
G1 X1.2554 Y0.2275
G1 X1.2491 Y0.2619
G1 X1.2416 Y0.2962
G1 X1.233 Y0.3301
G1 X1.2233 Y0.3638
G1 X1.2126 Y0.3971
G1 X1.2007 Y0.43
G1 X1.1875 Y0.4625
G1 X1.1735 Y0.4925
G1 X1.162 Y0.5127
G1 X1.1516 Y0.528
G1 X1.1493 Y0.5309
G1 X1.143 Y0.5371
G1 X1.1355 Y0.5417
G1 X1.1271 Y0.5444
G1 X1.1183 Y0.5452
G1 X1.1096 Y0.5439
G1 X1.1051 Y0.5428
G1 X1.0733 Y0.5376
G1 X1.0183 Y0.5299
G3 X0.998 Y0.5006 I0.0043 J-0.0246 F25.
G1 X1.1286 Y-0.189
G3 X1.1549 Y-0.2093 I0.0246 J0.0047
G1 X1.1582 Y-0.2088 F15.
G1 X1.1613 Y-0.208
G1 X1.1643 Y-0.2067
G1 X1.1767 Y-0.2 F20.
G1 X1.205 Y-0.1896
G1 X1.2085 Y-0.1878
G1 X1.2114 Y-0.1857
G1 X1.2144 Y-0.1829
G1 X1.2164 Y-0.1802
G1 X1.2191 Y-0.1749
G1 X1.2323 Y-0.142
G1 X1.2426 Y-0.1113
G1 X1.28 Y0.0145
G1 X1.2874 Y0.0795
G1 X1.2872 Y0.1113
G1 X1.2836 Y0.1908
G1 X1.2835 Y0.2067
G1 X1.284 Y0.2147
G1 X1.288 Y0.2388
G1 X1.2964 Y0.2783
G1 X1.2978 Y0.2862
G1 X1.2977 Y0.2902
G1 X1.297 Y0.2942
G1 X1.2959 Y0.2973
G1 X1.2715 Y0.3419
G1 X1.2676 Y0.3498
G1 X1.2641 Y0.359
G1 X1.2546 Y0.3896
G1 X1.2501 Y0.4055
G1 X1.2463 Y0.4293
G1 X1.245 Y0.4611
G1 X1.2435 Y0.4785
G1 X1.2416 Y0.4925
G1 X1.2386 Y0.5057
G1 X1.2349 Y0.5178
G1 X1.2294 Y0.5311
G1 X1.226 Y0.5366
G1 X1.2218 Y0.5415
G1 X1.2169 Y0.5456
G1 X1.215 Y0.5466 F25.
G1 X1.213 Y0.5472
G1 X1.2109 Y0.5474
G3 X1.2003 Y0.5331 I0. J-0.0111
G1 X1.2233 Y0.4579
G3 X1.2409 Y0.4525 I0.0106 J0.0032
G1 X1.2426 Y0.4543 F15.
G1 X1.2439 Y0.4564
G1 X1.2447 Y0.4587
G1 X1.245 Y0.4611
G1 X1.2443 Y0.4929 F20.
G1 X1.2442 Y0.5009
G1 X1.245 Y0.5128
G1 X1.2448 Y0.5168
G1 X1.244 Y0.5208
G1 X1.2424 Y0.5247
G1 X1.2403 Y0.5283
G1 X1.2362 Y0.5327
G1 X1.2164 Y0.5459
G1 X1.1926 Y0.5628
G1 X1.187 Y0.5654
G1 X1.1806 Y0.5665
G1 X1.1767 Y0.5664
G1 X1.173 Y0.5657
G1 X1.1244 Y0.5486
G1 X1.1096 Y0.5439
G1 X1.1065 Y0.5428 F25.
G1 X1.1037 Y0.5413
G1 X1.101 Y0.5394
G1 X1.098 Y0.5369 Z-0.4022
G1 X1.095 Y0.5345 Z-0.4013
G1 X1.0922 Y0.5322 Z-0.3998
G1 X1.0896 Y0.53 Z-0.3977
G1 X1.0873 Y0.5282 Z-0.3952
G1 X1.0853 Y0.5265 Z-0.3922
G1 X1.0838 Y0.5252 Z-0.3888
G1 X1.0826 Y0.5243 Z-0.3852
G1 X1.0819 Y0.5237 Z-0.3814
G1 X1.0816 Y0.5235 Z-0.3775
G0 Z0.1975
G0 X-0.3358 Y0.4191
G0 Z-0.3525
G1 Z-0.3775 F15.
G1 X-0.3357 Y0.4194 Z-0.3814
G1 X-0.3355 Y0.4203 Z-0.3852
G1 X-0.3351 Y0.4218 Z-0.3888
G1 X-0.3346 Y0.4237 Z-0.3922
G1 X-0.334 Y0.4262 Z-0.3952
G1 X-0.3333 Y0.4291 Z-0.3977
G1 X-0.3325 Y0.4324 Z-0.3998
G1 X-0.3316 Y0.4359 Z-0.4013
G1 X-0.3307 Y0.4396 Z-0.4022
G1 X-0.3298 Y0.4434 Z-0.4025
G1 X-0.3295 Y0.4455
G1 X-0.3299 Y0.4476
G1 X-0.3308 Y0.4495
G1 X-0.3322 Y0.4511
G1 X-0.3339 Y0.4523
G1 X-0.3935 Y0.4788 F20.
G1 X-0.3975 Y0.4801
G1 X-0.4015 Y0.4807
G1 X-0.4055
G1 X-0.4134 Y0.4798
G1 X-0.4214 Y0.4793
G1 X-0.4373 Y0.4802
G1 X-0.4532 Y0.4818
G1 X-0.4673 Y0.4826
G1 X-0.4785 Y0.4821
G1 X-0.4912 Y0.4805
G1 X-0.5044 Y0.4778
G1 X-0.5197 Y0.4733
G1 X-0.5366 Y0.4667
G1 X-0.5424 Y0.4633
G1 X-0.5475 Y0.4589
G1 X-0.5518 Y0.4537
G3 X-0.5396 Y0.4371 I0.0094 J-0.0059 F25.
G1 X-0.4524 Y0.4602
G3 X-0.4455 Y0.4761 I-0.0028 J0.0107
G1 X-0.4469 Y0.4781 F15.
G1 X-0.4487 Y0.4798
G1 X-0.4508 Y0.481
G1 X-0.4532 Y0.4818
G1 X-0.485 Y0.487 F20.
G1 X-0.5049 Y0.4908
G1 X-0.5088 Y0.4911
G1 X-0.5128 Y0.4908
G1 X-0.5168 Y0.4898
G1 X-0.5208 Y0.4881
G1 X-0.5253 Y0.485
G1 X-0.5407 Y0.4691
G1 X-0.5486 Y0.4584
G1 X-0.5868 Y0.4022
G1 X-0.5889 Y0.3975
G1 X-0.5919 Y0.3896
G1 X-0.5926 Y0.3856
G1 X-0.5941 Y0.3578
G1 X-0.5947 Y0.3498
G1 X-0.6 Y0.326
G1 X-0.6073 Y0.3021
G1 X-0.613 Y0.2862
G1 X-0.6167 Y0.2783
G1 X-0.6211 Y0.2703
G1 X-0.6281 Y0.2599
G1 X-0.6323 Y0.2544
G1 X-0.644 Y0.242
G1 X-0.6837 Y0.2079
G1 X-0.6852 Y0.2067
G1 X-0.6891 Y0.2035
G1 X-0.698 Y0.1954
G1 X-0.7075 Y0.1853
G1 X-0.7173 Y0.1729
G1 X-0.7276 Y0.1575
G1 X-0.7381 Y0.1389
G1 X-0.7484 Y0.1165
G1 X-0.7584 Y0.089
G1 X-0.7675 Y0.056
G1 X-0.7741 Y0.0216
G1 X-0.7783 Y-0.0132
G1 X-0.7804 Y-0.0481
G1 X-0.7805 Y-0.0832
G1 X-0.7788 Y-0.1181
G1 X-0.7755 Y-0.153
G1 X-0.7705 Y-0.1877
G1 X-0.764 Y-0.2221
G1 X-0.756 Y-0.2562
G1 X-0.7466 Y-0.2899
G1 X-0.7358 Y-0.3233
G1 X-0.7274 Y-0.3454
G1 X-0.7231 Y-0.3538
G1 X-0.717 Y-0.3609
G1 X-0.7095 Y-0.3666
G1 X-0.7009 Y-0.3704
G1 X-0.6917 Y-0.3722
G1 X-0.6678 Y-0.3745
G1 X-0.6281 Y-0.3853
G1 X-0.5953 Y-0.3949
G1 X-0.5901 Y-0.3967
G3 X-0.5579 Y-0.3689 I0.0075 J0.0238 F25.
G1 X-0.6472 Y0.1894
G3 X-0.676 Y0.2102 I-0.0247 J-0.004
G1 X-0.6792 Y0.2094 F15.
G1 X-0.6823 Y0.2083
G1 X-0.6852 Y0.2067
G1 X-0.6996 Y0.1971 F20.
G1 X-0.7117 Y0.1908
G1 X-0.7235 Y0.1861
G1 X-0.7314 Y0.1837
G1 X-0.7354 Y0.1829
G1 X-0.7448 Y0.18
G1 X-0.7518 Y0.177
G1 X-0.7599 Y0.1728
G1 X-0.768 Y0.1677
G1 X-0.777 Y0.161
G1 X-0.7868 Y0.1524
G1 X-0.7962 Y0.1426
G1 X-0.8067 Y0.1298
G1 X-0.8167 Y0.1154
G1 X-0.8274 Y0.0971
G1 X-0.8372 Y0.0766
G1 X-0.8469 Y0.0515
G1 X-0.8557 Y0.0216
G1 X-0.8628 Y-0.0127
G1 X-0.8673 Y-0.0474
G1 X-0.8694 Y-0.0824
G1 X-0.8693 Y-0.1174
G1 X-0.8674 Y-0.1524
G1 X-0.8638 Y-0.1872
G1 X-0.8585 Y-0.2219
G1 X-0.8518 Y-0.2562
G1 X-0.8436 Y-0.2903
G1 X-0.8358 Y-0.3162
G1 X-0.828 Y-0.3361
G1 X-0.8203 Y-0.352
G1 X-0.8115 Y-0.3666
G1 X-0.8042 Y-0.3744
G1 X-0.7951 Y-0.3798
G1 X-0.7848 Y-0.3826
G1 X-0.7741 Y-0.3824
G1 X-0.7141 Y-0.3737
G1 X-0.6917 Y-0.3722
G3 X-0.6693 Y-0.3455 I-0.0025 J0.0249 F25.
G1 X-0.7065 Y0.16
G3 X-0.7257 Y0.1825 I-0.0249 J-0.0018
G1 X-0.7289 Y0.1831 F15.
G1 X-0.7322 Y0.1832
G1 X-0.7354 Y0.1829
G1 X-0.7473 Y0.1805 F20.
G1 X-0.795 Y0.1758
G1 X-0.8049 Y0.1745
G1 X-0.8126 Y0.1726
G1 X-0.8204 Y0.17
G1 X-0.8292 Y0.1663
G1 X-0.8384 Y0.1615
G1 X-0.8483 Y0.1553
G1 X-0.8588 Y0.1474
G1 X-0.8694 Y0.1381
G1 X-0.8808 Y0.1263
G1 X-0.8918 Y0.1129
G1 X-0.9036 Y0.096
G1 X-0.9146 Y0.0771
G1 X-0.9254 Y0.0545
G1 X-0.9358 Y0.0277
G1 X-0.9448 Y-0.003
G1 X-0.952 Y-0.0373
G1 X-0.9564 Y-0.072
G1 X-0.9586 Y-0.107
G1 X-0.9587 Y-0.142
G1 X-0.9569 Y-0.177
G1 X-0.9563 Y-0.1827
G1 X-0.9553 Y-0.1884
G1 X-0.9534 Y-0.1938
G1 X-0.9508 Y-0.1989
G1 X-0.9272 Y-0.2385
G1 X-0.9222 Y-0.2478
G1 X-0.9141 Y-0.2703
G1 X-0.9063 Y-0.2963
G1 X-0.9005 Y-0.3225
G1 X-0.8998 Y-0.3279
G1 X-0.8973 Y-0.341
G1 X-0.8942 Y-0.3527
G1 X-0.8926 Y-0.3571
G1 X-0.8884 Y-0.3654
G1 X-0.8823 Y-0.3726
G1 X-0.8746 Y-0.3779
G1 X-0.8658 Y-0.3813
G3 X-0.8377 Y-0.347 I0.0052 J0.0245 F25.
G1 X-0.8525 Y-0.3125
G3 X-0.8986 Y-0.3129 I-0.023 J-0.0099
G1 X-0.8997 Y-0.316 F15.
G1 X-0.9003 Y-0.3192
G1 X-0.9005 Y-0.3225
G1 X-0.8997 Y-0.3419 F20.
G1 X-0.8998 Y-0.3538
G1 X-0.8994 Y-0.3578
G1 X-0.8975 Y-0.3635
G1 X-0.8939 Y-0.3693
G1 X-0.8893 Y-0.3737
G1 X-0.8859 Y-0.3758
G1 X-0.8825 Y-0.3773
G1 X-0.8339 Y-0.3896
G1 X-0.8229 Y-0.3925
G1 X-0.8189 Y-0.3927
G1 X-0.8149 Y-0.3922
G1 X-0.8065 Y-0.3896
G3 X-0.7909 Y-0.3674 I-0.0094 J0.0232 F25.
G1 X-0.7699 Y0.1498
G3 X-0.7855 Y0.174 I-0.025 J0.001
G1 X-0.7886 Y0.175 F15.
G1 X-0.7918 Y0.1756
G1 X-0.795 Y0.1758
G1 X-0.8189 Y0.1753 F20.
G1 X-0.8348 Y0.1774
G1 X-0.8441 Y0.1791
G1 X-0.848 Y0.18
G1 X-0.854 Y0.1806
G1 X-0.8603 Y0.1807
G1 X-0.8677 Y0.1802
G1 X-0.8754 Y0.179
G1 X-0.8844 Y0.1769
G1 X-0.8935 Y0.174
G1 X-0.9039 Y0.1698
G1 X-0.9142 Y0.1646
G1 X-0.9258 Y0.1575
G1 X-0.9371 Y0.1492
G1 X-0.9498 Y0.1383
G1 X-0.9618 Y0.1262
G1 X-0.975 Y0.1106
G1 X-0.9872 Y0.0934
G1 X-0.9999 Y0.0723
G1 X-1.012 Y0.0479
G1 X-1.0228 Y0.0207
G1 X-1.0327 Y-0.0115
G1 X-1.0403 Y-0.0456
G1 X-1.0434 Y-0.0672
G1 X-1.0437 Y-0.0754
G1 X-1.0423 Y-0.0834
G1 X-1.0392 Y-0.091
G1 X-1.0346 Y-0.0977
G1 X-0.9683 Y-0.1749
G1 X-0.9508 Y-0.1989
G3 X-0.9056 Y-0.1907 I0.0208 J0.0138 F25.
G1 X-0.8275 Y0.1497
G3 X-0.8356 Y0.1743 I-0.0244 J0.0056
G1 X-0.8382 Y0.1762 F15.
G1 X-0.841 Y0.1778
G1 X-0.8441 Y0.1791
G1 X-0.8586 Y0.1836 F20.
G1 X-0.8869 Y0.1956
G1 X-0.8956 Y0.1986
G1 X-0.9017 Y0.2
G1 X-0.9084 Y0.2011
G1 X-0.9161 Y0.2017
G1 X-0.9244
G1 X-0.9335 Y0.2009
G1 X-0.9434 Y0.1993
G1 X-0.9542 Y0.1966
G1 X-0.9656 Y0.1927
G1 X-0.9776 Y0.1876
G1 X-0.9906 Y0.1807
G1 X-1.0036 Y0.1724
G1 X-1.0179 Y0.1616
G1 X-1.0317 Y0.1494
G1 X-1.0356 Y0.1453
G1 X-1.0407 Y0.1388
G1 X-1.0442 Y0.1313
G1 X-1.046 Y0.1233
G1 X-1.0474 Y0.1113
G1 X-1.0495 Y0.1018
G1 X-1.0539 Y0.0875
G1 X-1.0574 Y0.0791
G1 X-1.0909 Y0.0159
G1 X-1.0948 Y0.008
G1 X-1.0957 Y0.004
G1 X-1.0961 Y0.
G1 X-1.0957 Y-0.004
G1 X-1.0927 Y-0.0159
G1 X-1.0913 Y-0.0196
G1 X-1.0706 Y-0.0557
G1 X-1.0346 Y-0.0977
G3 X-0.9935 Y-0.0914 I0.0184 J0.0169 F25.
G1 X-0.8749 Y0.1623
G3 X-0.879 Y0.1898 I-0.0226 J0.0106
G1 X-0.8814 Y0.192 F15.
G1 X-0.884 Y0.194
G1 X-0.8869 Y0.1956
G1 X-0.8984 Y0.201 F20.
G1 X-0.912 Y0.208
G1 X-0.9143 Y0.2095
G1 X-0.9222 Y0.216
G1 X-0.9296 Y0.2213
G1 X-0.9343 Y0.224
G1 X-0.9396 Y0.2265
G1 X-0.9459 Y0.2289
G1 X-0.9528 Y0.2309
G1 X-0.9607 Y0.2325
G1 X-0.9693 Y0.2335
G1 X-0.9789 Y0.2339
G1 X-0.9894 Y0.2335
G1 X-1.0006 Y0.2321
G1 X-1.0145 Y0.229
G1 X-1.0229 Y0.2254
G1 X-1.0302 Y0.22
G1 X-1.036 Y0.213
G1 X-1.04 Y0.2047
G1 X-1.042 Y0.1958
G1 X-1.0417 Y0.1867
G1 X-1.0415 Y0.1799
G1 X-1.0422 Y0.159
G1 X-1.046 Y0.1233
G3 X-1.0041 Y0.1028 I0.0249 J-0.0021 F25.
G1 X-0.9218 Y0.1789
G3 X-0.9163 Y0.2083 I-0.017 J0.0184
G1 X-0.918 Y0.2111 F15.
G1 X-0.9199 Y0.2137
G1 X-0.9222 Y0.216
G1 X-0.9398 Y0.2306 F20.
G1 X-0.962 Y0.2514
G1 X-0.9677 Y0.2562
G1 X-0.972 Y0.2594
G1 X-0.9768 Y0.2622
G1 X-0.9818 Y0.2647
G1 X-0.9868 Y0.2667
G1 X-0.9923 Y0.2683
G1 X-0.998 Y0.2696
G1 X-1.0036 Y0.2703
G1 X-1.0093 Y0.2707
G1 X-1.0168 Y0.2704
G1 X-1.0262 Y0.2681
G1 X-1.0348 Y0.2636
G1 X-1.042 Y0.257
G1 X-1.0473 Y0.2488
G1 X-1.0504 Y0.2395
G1 X-1.051 Y0.2298
G1 X-1.0491 Y0.2203
G1 X-1.0447 Y0.2067
G1 X-1.0417 Y0.1867
G3 X-0.9983 Y0.1747 I0.0246 J0.0044 F25.
G1 X-0.961 Y0.2173
G3 X-0.9566 Y0.2433 I-0.0188 J0.0165
G1 X-0.9581 Y0.2462 F15.
G1 X-0.9599 Y0.2489
G1 X-0.962 Y0.2514
G1 X-0.9727 Y0.2624 F20.
G1 X-0.9779 Y0.2682
G1 X-0.9865 Y0.2804
G1 X-0.9881 Y0.2827
G1 X-0.9917 Y0.2867
G1 X-0.9957 Y0.2903
G1 X-1.0002 Y0.2933
G1 X-1.005 Y0.2958
G1 X-1.0101 Y0.2977
G1 X-1.0153 Y0.2991
G1 X-1.0212 Y0.3
G1 X-1.0308 Y0.2994
G1 X-1.04 Y0.2965
G1 X-1.0481 Y0.2913
G1 X-1.0547 Y0.2843
G1 X-1.0594 Y0.2758
G1 X-1.0618 Y0.2665
G1 Y0.2569
G1 X-1.0593 Y0.2475
G1 X-1.0582 Y0.2449 F25.
G3 X-0.983 Y0.2712 I0.0364 J0.0164
G1 X-0.9845 Y0.2759 F15.
G1 X-0.9865 Y0.2804
G1 X-1.0018 Y0.3069 F20.
G1 X-1.0035 Y0.3097
G1 X-1.0069 Y0.3139
G1 X-1.0109 Y0.3175
G1 X-1.0154 Y0.3206
G1 X-1.0202 Y0.323
G1 X-1.0253 Y0.3249
G1 X-1.0306 Y0.3261
G1 X-1.0359 Y0.3268
G1 X-1.0457 Y0.3258
G1 X-1.0549 Y0.3222
G1 X-1.0629 Y0.3164
G1 X-1.0691 Y0.3087
G1 X-1.073 Y0.2997
G1 X-1.0745 Y0.29
G1 X-1.0734 Y0.2802
G1 X-1.0698 Y0.271
G1 X-1.0654 Y0.2619
G1 X-1.0521 Y0.2292
G1 X-1.0491 Y0.2203
G3 X-1.0149 Y0.2132 I0.0193 J0.0071 F25.
G3 X-0.9978 Y0.2979 I-0.0593 J0.0561
G1 X-0.9996 Y0.3025 F15.
G1 X-1.0018 Y0.3069
G1 X-1.0161 Y0.3323 F20.
G1 X-1.0182 Y0.3356
G1 X-1.0215 Y0.3398
G1 X-1.0255 Y0.3435
G1 X-1.0299 Y0.3465
G1 X-1.0348 Y0.3489
G1 X-1.0399 Y0.3507
G1 X-1.0451 Y0.3519
G1 X-1.0505 Y0.3525
G1 X-1.0559
G1 X-1.0613 Y0.352
G1 X-1.0706 Y0.3489
G1 X-1.0788 Y0.3434
G1 X-1.0853 Y0.3361
G1 X-1.0896 Y0.3273
G1 X-1.0916 Y0.3176
G1 X-1.0909 Y0.3078
G1 X-1.0878 Y0.2985
G1 X-1.0824 Y0.2903
G1 X-1.0796 Y0.2875 F25.
G1 X-1.0767 Y0.2848
G3 X-1.0127 Y0.3231 I0.0258 J0.0295
G1 X-1.0141 Y0.3278 F15.
G1 X-1.0161 Y0.3323
G1 X-1.0314 Y0.3594 F20.
G1 X-1.0333 Y0.3624
G1 X-1.0366 Y0.3666
G1 X-1.0407 Y0.3702
G1 X-1.0451 Y0.3733
G1 X-1.0499 Y0.3757
G1 X-1.0555 Y0.3777
G1 X-1.0654 Y0.3788
G1 X-1.0753 Y0.3773
G1 X-1.0844 Y0.3733
G1 X-1.0922 Y0.3671
G1 X-1.0981 Y0.3591
G1 X-1.1018 Y0.3499
G1 X-1.103 Y0.34
G3 X-1.089 Y0.3299 I0.0111 J0.0005 F25.
G1 X-1.0383 Y0.3436
G1 X-1.036 Y0.3446
G1 X-1.034 Y0.346
G1 X-1.0323 Y0.3478
G1 X-1.0311 Y0.3499
G1 X-1.0303 Y0.3523 F15.
G1 X-1.0302 Y0.3547
G1 X-1.0305 Y0.3571
G1 X-1.0314 Y0.3594
G1 X-1.0429 Y0.3795 F20.
G1 X-1.0471 Y0.3839
G1 X-1.0495 Y0.3858
G1 X-1.0618 Y0.3934
G1 X-1.0657 Y0.3955
G1 X-1.0742 Y0.3977
G1 X-1.083 Y0.3972
G1 X-1.0912 Y0.3941
G1 X-1.0982 Y0.3887
G1 X-1.1032 Y0.3815
G1 X-1.1059 Y0.3731
G1 X-1.106 Y0.3643
G3 X-1.0927 Y0.3448 I0.0282 J0.005 F25.
G3 X-1.0547 Y0.3867 I0.015 J0.0246
G1 X-1.0568 Y0.3892 F15.
G1 X-1.0592 Y0.3914
G1 X-1.0618 Y0.3934
G1 X-1.0709 Y0.3989 F20.
G1 X-1.0733 Y0.4
G1 X-1.0773 Y0.4012
G1 X-1.0813 Y0.4016
G1 X-1.0852 Y0.4015
G1 X-1.0892 Y0.4007
G1 X-1.0926 Y0.3994
G1 X-1.0972 Y0.3967
G1 X-1.1012 Y0.3932
G1 X-1.104 Y0.3896
G1 X-1.1064 Y0.3846
G1 X-1.1073 Y0.3816
G1 X-1.1079 Y0.3776
G1 X-1.1078 Y0.3737
G1 X-1.1059 Y0.3633
G1 X-1.103 Y0.3405
G1 X-1.1032 Y0.326
G1 X-1.1033 Y0.322
G1 X-1.1029 Y0.318
G1 X-1.1009 Y0.3121
G1 X-1.0986 Y0.3083
G1 X-1.0928 Y0.3021
G1 X-1.091 Y0.3009 Z-0.4022 F25.
G1 X-1.0892 Y0.2998 Z-0.4015
G1 X-1.0877 Y0.2988 Z-0.4003
G1 X-1.0864 Y0.298 Z-0.3988
G1 X-1.0854 Y0.2974 Z-0.3969
G1 X-1.0847 Y0.2971 Z-0.3949
G1 X-1.0845 Y0.297 Z-0.3927
G0 Z0.1975
G0 X0.3573 Y-0.4694
G0 Z-0.3025
G1 Z-0.3275 F15.
G1 X0.3575 Y-0.4697 Z-0.3314
G1 X0.358 Y-0.4704 Z-0.3352
G1 X0.3587 Y-0.4717 Z-0.3388
G1 X0.3598 Y-0.4735 Z-0.3422
G1 X0.3612 Y-0.4756 Z-0.3452
G1 X0.3627 Y-0.4782 Z-0.3477
G1 X0.3645 Y-0.481 Z-0.3498
G1 X0.3664 Y-0.4841 Z-0.3513
G1 X0.3684 Y-0.4873 Z-0.3522
G1 X0.3705 Y-0.4906 Z-0.3525
G1 X0.3733 Y-0.4947
G1 X0.3765 Y-0.4984
G1 X0.3785 Y-0.5002 F20.
G1 X0.381 Y-0.5009
G1 X0.3836 Y-0.5001
G1 X0.4293 Y-0.4725
G1 X0.4373 Y-0.4685
G1 X0.4611 Y-0.459
G1 X0.5088 Y-0.4422
G1 X0.5327 Y-0.4366
G1 X0.5717 Y-0.4293
G1 X0.5883 Y-0.4268
G1 X0.6281 Y-0.4259
G1 X0.7235 Y-0.4248
G1 X0.7314 Y-0.4245
G1 X0.7354 Y-0.4236
G1 X1.0495 Y-0.3165
G1 X1.0733 Y-0.3062
G1 X1.0768 Y-0.3045
G1 X1.0813 Y-0.3013
G1 X1.0845 Y-0.2977
G1 X1.1081 Y-0.2624
G1 X1.1147 Y-0.2544
G1 X1.138 Y-0.2306
G1 X1.1559 Y-0.2147
G1 X1.1687 Y-0.2062
G1 X1.1767 Y-0.202
G1 X1.2085 Y-0.19
G1 X1.2124 Y-0.1873
G1 X1.2167 Y-0.1829
G1 X1.2193 Y-0.1789
G1 X1.2337 Y-0.1431
G1 X1.2445 Y-0.1113
G1 X1.2813 Y0.0119
G1 X1.2838 Y0.0318
G1 X1.2892 Y0.0795
G1 X1.2889 Y0.1113
G1 X1.2854 Y0.1908
G1 X1.2852 Y0.2067
G1 X1.2858 Y0.2147
G1 X1.2897 Y0.2385
G1 X1.2982 Y0.2783
G1 X1.2996 Y0.2862
G1 X1.2995 Y0.2902
G1 X1.2989 Y0.2942
G1 X1.2977 Y0.2977
G1 X1.2721 Y0.3448
G1 X1.2694 Y0.3498
G1 X1.2641 Y0.3648
G1 X1.2562 Y0.3903
G1 X1.252 Y0.4055
G1 X1.2482 Y0.4266
G1 X1.2462 Y0.477
G1 X1.246 Y0.5009
G1 X1.2468 Y0.5128
G1 X1.2467 Y0.5168
G1 X1.246 Y0.5208
G1 X1.2447 Y0.5247
G1 X1.2429 Y0.5282
G1 X1.2392 Y0.5327
G1 X1.2358 Y0.5355
G1 X1.2085 Y0.5536
G1 X1.1926 Y0.565
G1 X1.1886 Y0.5669
G1 X1.1846 Y0.5681
G1 X1.1806 Y0.5685
G1 X1.1767 Y0.5683
G1 X1.1727 Y0.5675
G1 X1.129 Y0.5519
G1 X1.1131 Y0.5467
G1 X1.1051 Y0.5446
G1 X1.0733 Y0.5394
